!!!!SEGMENT: pl-cz--ii-129--009_kozllowski-jozef--requiem-o-rex-intende-hostias.krn
!!!cenid: 18xx:932
!!!COM: Kozłowski, Józef
!!!COM-rismid: pe30003850
!!!CDT: 1757-1831
!!!CNT: Polish
!!!OPR: Requiem
!!!OTL: O rex intende hostias
!!!OMV: 009
!!!PDT:
!!!AGN: Sacred; Requiem
!!!SMS-siglum: PL-CZ
!!!SMS-shelfmark: II-129
!!!SMS-shelfwork: 001-009 M
!!!SMS-variant:
!!!SMS-altvar:
!!!NIFC-rismid: 300000626
!!!URL-scan: http://repozytorium.nifc.pl/skany/pl-cz-nut--ii-129
!!!ONB-nifc: UWAGA: części Requiem: Requiem, Dies irae, Tuba mirrum, Judex ergo, Confutatis, Lacrimosa, Offertorium, Sanctus, O rex intende hostias, Agnus Dei, Quia pius es, Requiem, Salve Regina
!!!AIN: 1 bass 1 cbass 1 cello 2 clarb 2 cor 2 fagot 2 flt 2 oboe 1 soprn 1 tenor 1 timpa 1 tromb 2 tromp 1 tromt 1 viola 2 violn
!!!key: E-
**kern	**dynam	**kern	**kern	**dynam	**kern	**dynam	**kern	**dynam	**kern	**kern	**kern	**text	**kern	**kern	**dynam	**kern	**dynam	**kern	**dynam	**kern	**kern	**kern	**dynam	**kern	**dynam	**kern	**dynam	**kern	**dynam	**kern	**dynam	**kern	**dynam	**kern	**dynam	**kern	**dynam	**kern	**kern
*part24	*part24	*part23	*part22	*part22	*part21	*part21	*part20	*part20	*part19	*part18	*part17	*part17	*part16	*part15	*part15	*part14	*part14	*part13	*part13	*part12	*part11	*part10	*part10	*part9	*part9	*part8	*part8	*part7	*part7	*part6	*part6	*part5	*part5	*part4	*part4	*part3	*part3	*part2	*part1
*staff24	*	*staff23	*staff22	*	*staff21	*	*staff20	*	*staff19	*staff18	*staff17	*staff17	*staff16	*staff15	*	*staff14	*	*staff13	*	*staff12	*staff11	*staff10	*	*staff9	*	*staff8	*	*staff7	*	*staff6	*	*staff5	*	*staff4	*	*staff3	*	*staff2	*staff1
*group4	*group4	*group4	*group4	*group4	*group4	*group4	*group4	*group4	*group3	*group3	*group3	*group3	*group	*group2	*group2	*group2	*group2	*group2	*group2	*group2	*group2	*group2	*group2	*group2	*group2	*group1	*group1	*group1	*group1	*group1	*group1	*group1	*group1	*group1	*group1	*group1	*group1	*group1	*group1
*I"Baſso.	*	*I"Violonzello.	*I"Alto Viola.	*	*I"Violino 2.do	*	*I"Violino I.mo	*	*I"Baſso.	*I"Tenore.	*I"Soprano.	*	*I"Timpani in C.	*I"Trombone Baſso.	*	*I"Trombone Tenore	*	*I"Trombone Alto	*	*I"Tromba IIdo in Es.	*I"Tromba Imo in Es.	*I"Corno Secundo. in Es.	*	*I"Corno Imo in Es.	*	*I"Fagotto IIdo	*	*I"Fagotto Imo	*	*I"Clarinetto Secundo in B.	*	*I"Clarinetto Primo in B.	*	*I"Oboe Secundo	*	*I"Oboe Primo	*	*I"Flauto. Secundo.	*I"Flauto Primo
*I'b	*	*I'vlc	*I'a-vla	*	*I'vl 2	*	*I'vl 1	*	*I'B	*I'T	*I'S	*	*I'timp	*I'b-trb	*	*I't-trb	*	*I'a-trb	*	*I'tr 2 in E♭	*I'tr 1 in E♭	*I'cor 2 in E♭	*	*I'cor 1 in E♭	*	*I'fag 2	*	*I'fag 1	*	*I'cl 2	*	*I'cl 1	*	*I'ob 2	*	*I'ob 1	*	*I'fl 2	*I'fl 1
*Icbass	*	*Icello	*Iviola	*	*Ivioln	*	*Ivioln	*	*Ibass	*Itenor	*Isoprn	*	*Itimpa	*Itromb	*	*Itromt	*	*troma	*	*Itromp	*Itromp	*Icor	*	*Icor	*	*Ifagot	*	*Ifagot	*	*Iclarb	*	*Iclarb	*	*Ioboe	*	*Ioboe	*	*Iflt	*Iflt
*ICstr	*	*ICstr	*ICstr	*	*ICstr	*	*ICstr	*	*ICvox	*ICvox	*ICvox	*	*Icidio	*ICbras	*	*ICbras	*	*ICbras	*	*ICbras	*ICbras	*ICbras	*	*ICbras	*	*ICww	*	*ICww	*	*ICww	*	*ICww	*	*ICww	*	*ICww	*	*ICww	*ICww
*clefF4	*	*clefF4	*clefC3	*	*clefG2	*	*clefG2	*	*clefF4	*clefC4	*clefC1	*	*clefF4	*clefF4	*	*clefC4	*	*clefC3	*	*clefG2	*clefG2	*clefG2	*	*clefG2	*	*clefF4	*	*clefF4	*	*clefG2	*	*clefG2	*	*clefG2	*	*clefG2	*	*clefG2	*clefG2
*	*	*	*	*	*	*	*	*	*	*	*	*	*	*	*	*	*	*	*	*	*	*ITrd5c9	*	*ITrd5c9	*	*	*	*	*	*ITrd1c2	*	*ITrd1c2	*	*	*	*	*	*	*
*k[b-e-a-]	*	*k[b-e-]	*k[b-e-]	*	*k[b-e-a-]	*	*k[b-e-]	*	*k[b-e-]	*k[b-e-]	*k[b-e-]	*	*k[b-e-]	*k[b-e-a-]	*	*k[b-e-a-]	*	*k[b-e-a-]	*	*k[b-e-]	*k[b-e-]	*k[b-e-a-]	*	*k[b-e-a-]	*	*k[b-e-a-]	*	*k[b-e-a-]	*	*k[b-e-a-]	*	*k[b-e-a-]	*	*k[b-e-a-]	*	*k[b-e-a-]	*	*k[b-e-]	*k[b-e-]
*E-:	*	*E-:	*E-:	*	*E-:	*	*E-:	*	*E-:	*E-:	*E-:	*	*E-:	*E-:	*	*E-:	*	*E-:	*	*E-:	*E-:	*E-:	*	*E-:	*	*E-:	*	*E-:	*	*E-:	*	*E-:	*	*E-:	*	*E-:	*	*E-:	*E-:
*M3/4	*	*M3/4	*M3/4	*	*M3/4	*	*M3/4	*	*M3/4	*M3/4	*M3/4	*	*M3/4	*M3/4	*	*M3/4	*	*M3/4	*	*M3/4	*M3/4	*M3/4	*	*M3/4	*	*M3/4	*	*M3/4	*	*M3/4	*	*M3/4	*	*M3/4	*	*M3/4	*	*M3/4	*M3/4
=1	=1	=1	=1	=1	=1	=1	=1	=1	=1	=1	=1	=1	=1	=1	=1	=1	=1	=1	=1	=1	=1	=1	=1	=1	=1	=1	=1	=1	=1	=1	=1	=1	=1	=1	=1	=1	=1	=1	=1
*2\right	*	*	*2\right	*	*2\right	*	*2\right	*	*	*	*2\right	*	*2\right	*2\right	*	*2\right	*	*2\right	*	*	*	*2\right	*	*2\right	*	*2\right	*	*2\right	*	*2\right	*	*2\right	*	*2\right	*	*2\right	*	*	*
*all\right	*	*	*all\right	*	*all\right	*	*all\right	*	*	*	*all\right	*	*all\right	*all\right	*	*all\right	*	*all\right	*	*	*	*all\right	*	*all\right	*	*all\right	*	*all\right	*	*all\right	*	*all\right	*	*all\right	*	*all\right	*	*	*
!LO:TX:t=P:problem=propozycja podłożenia głosu w stosunku do całości utworu bardzo niepewna	!	!	!	!	!	!	!	!	!	!	!	!	!	!	!	!	!	!	!	!	!	!	!	!	!	!	!	!	!	!	!	!	!	!	!	!	!	!	!
!	!	!	!	!	!	!	!LO:TX:t=P:problem=klucz i oznaczenia przykluczowe biorę z początku "Sanctus" ("O Rex" zapisane jako część poprzedniego fragmentu)	!	!	!	!	!	!	!	!	!	!	!	!	!	!	!	!	!	!	!	!	!	!	!	!	!	!	!	!	!	!	!	!
!	!	!	!	!	!	!	!	!	!	!	!LO:TX:a:t=4.	!	!	!	!	!	!	!LO:TX:a:t=13.	!	!	!	!LO:TX:b:i:t=Solo	!	!	!	!	!	!LO:TX:t=P::problem=drugi i trzeci bemol zapisane w pozycji wyżej&colon; BB-, F-, C-	!	!	!	!	!	!	!	!	!	!	!
!LO:TX:a:t=4	!	!	!LO:TX:a:t=4.	!	!LO:TX:t=P:problem=część nieoznaczona incipitem tekstu	!	!LO:TX:a:t=3.	!	!LO:TX:a:t=55.	!	!LO:TX:t=P:problem=klucz i oznaczenia przykluczowe biorę z początku "Sanctus" ("O Rex" zapisane jako część poprzedniego fragmentu)	!	!	!LO:TX:a:t=13.	!	!LO:TX:a:t=13.	!	!LO:TX:a:i:t=Cantabile	!	!	!	!	!	!LO:TX:b:i:t=Solo dol	!	!LO:TX:a:t=12	!	!	!	!=	!	!	!	!LO:TX:b:i:t=Solo dol	!	!LO:TX:b:i:t=Solo dol	!	!	!
!LO:TX:a:i:t=Cantabille.	!	!LO:TX:t=P:problem=zapis partii urywa się w trakcie "Offertorium"	!	!	!LO:TX:a:t=3.	!	!LO:TX:a:i:t=Cantabile	!	!	!LO:TX:a:t=55.	!LO:TX:t=P:problem=kolejność bemoli&colon;b-, ee-	!	!LO:TX:t=P::problem=część nieoznaczona w jakikolwiek sposób (poprzedni fragment&colon; Allegro Maestoso. Tazet.)	!LO:TX:a:i:t=Cantabile.	!	!LO:TX:a:i:t=Cantabile.	!	!LO:TX:t=P:problem=klucz i oznaczenia przykluczowe biorę z poprzedniej części (Allegro maestoso)	!	!LO:TX:t=P::problem=część nieoznaczona w jakikolwiek sposób (poprzedni fragment&colon; Allegro Maestoso. Tazet.)	!LO:TX:t=P::problem=część nieoznaczona w jakikolwiek sposób (poprzedni fragment&colon; Allegro Maestoso. Tazet.)	!LO:TX:a:i:t=Cantabile.	!	!LO:TX:a:i:t=Cantabille.	!	!LO:TX:a:i:t=Cantabile	!	!LO:TX:a:i:t=Cantabile	!	!LO:TX:a:i:t=Cantabile	!	!LO:TX:a:i:t=Cantabile	!	!LO:TX:a:i:t=Cantabile	!	!LO:TX:a:i:t=Cantabile	!	!LO:TX:t=P::problem=część nieoznaczona w jakikolwiek sposób (poprzedni fragment&colon; Allegro Maestoso. Tazet.)	!LO:TX:t=P::problem=część nieoznaczona w jakikolwiek sposób (poprzedni fragment&colon; Allegro Maestoso. Tazet.)
!	!	!	!	!	!	!	!	!	!	!	!	!	!	!	!	!	!	!	!	!	!	!	!	!	!	!	!	!	!LO:DY:b:t=po	!	!	!	!	!	!	!	!	!	!
0.r	.	2.ryy	0.r	.	1.r	.	1.r	.	2.r	2.r	0.r	.	2.ryy	0.r	.	0.r	.	0.r	.	2.ryy	2.ryy	[<2.B-/	.	[<2.B-/	.	0.r	.	(>2.E-\	p	(>2ee-\	.	(2gg\	.	(>2b-\	.	[>2.b-\	.	2.ryy	2.ryy
.	.	.	.	.	.	.	.	.	.	.	.	.	.	.	.	.	.	.	.	.	.	.	.	.	.	.	.	.	.	8dd\L	.	8ff\L	.	8a-\L	.	.	.	.	.
.	.	.	.	.	.	.	.	.	.	.	.	.	.	.	.	.	.	.	.	.	.	.	.	.	.	.	.	.	.	8ee-\J)	.	8gg\J	.	8g\J	.	.	.	.	.
=2	=2	=2	=2	=2	=2	=2	=2	=2	=2	=2	=2	=2	=2	=2	=2	=2	=2	=2	=2	=2	=2	=2	=2	=2	=2	=2	=2	=2	=2	=2	=2	=2	=2	=2	=2	=2	=2	=2	=2
.	.	.	.	.	.	.	.	.	.	.	.	.	.	.	.	.	.	.	.	.	.	.	.	.	.	.	.	.	.	.	.	8qbb-/	.	.	.	.	.	.	.
.	.	2.ryy	.	.	.	.	.	.	2.r	2.r	.	.	2.ryy	.	.	.	.	.	.	2.ryy	2.ryy	2B-/]	.	2B-/]	.	.	.	4D\	.	4ff\	.	4aa-\	.	4f/	.	2b-\]	.	2.ryy	2.ryy
.	.	.	.	.	.	.	.	.	.	.	.	.	.	.	.	.	.	.	.	.	.	.	.	.	.	.	.	4E-\)	.	4ee-\	.	4.gg\)	.	4g/)	.	.	.	.	.
.	.	.	.	.	.	.	.	.	.	.	.	.	.	.	.	.	.	.	.	.	.	4r	.	4r	.	.	.	4r	.	4r	.	.	.	4r	.	4r	.	.	.
.	.	.	.	.	.	.	.	.	.	.	.	.	.	.	.	.	.	.	.	.	.	.	.	.	.	.	.	.	.	.	.	16aa-\LL	.	.	.	.	.	.	.
.	.	.	.	.	.	.	.	.	.	.	.	.	.	.	.	.	.	.	.	.	.	.	.	.	.	.	.	.	.	.	.	16bb-\JJ	.	.	.	.	.	.	.
!	!	!	!	!	!	!	!	!	!	!	!	!	!	!	!	!	!	!	!	!	!	!	!	!	!	!	!	!	!	!	!	!	!	!	!	!LO:LB:g=original	!	!	!
=3	=3	=3	=3	=3	=3	=3	=3	=3	=3	=3	=3	=3	=3	=3	=3	=3	=3	=3	=3	=3	=3	=3	=3	=3	=3	=3	=3	=3	=3	=3	=3	=3	=3	=3	=3	=3	=3	=3	=3
!	!	!	!	!	!	!	!	!	!	!	!	!	!	!	!	!	!	!	!	!	!	!	!	!	!	!	!	!	!LO:DY:b:t=po	!	!	!	!	!	!	!	!	!	!
.	.	2.ryy	.	.	2.r	.	2.r	.	2.r	2.r	.	.	2.ryy	.	.	.	.	.	.	2.ryy	2.ryy	2.r	.	2.r	.	.	.	(>2.A-\	p	8r	.	4ccc\	.	4r	.	4r	.	2.ryy	2.ryy
.	.	.	.	.	.	.	.	.	.	.	.	.	.	.	.	.	.	.	.	.	.	.	.	.	.	.	.	.	.	(>8ee-\L	.	.	.	.	.	.	.	.	.
!	!	!	!	!	!	!	!	!	!	!	!	!	!	!	!	!	!	!	!	!	!	!LO:TX:a:t=1	!	!LO:TX:a:t=1	!	!	!	!	!	!	!	!	!	!	!	!	!	!	!
.	.	.	.	.	.	.	.	.	.	.	.	.	.	.	.	.	.	.	.	.	.	.	.	.	.	.	.	.	.	8dd\	.	8bb-\L	.	4r	.	4r	.	.	.
.	.	.	.	.	.	.	.	.	.	.	.	.	.	.	.	.	.	.	.	.	.	.	.	.	.	.	.	.	.	8cc\	.	8aa-\	.	.	.	.	.	.	.
.	.	.	.	.	.	.	.	.	.	.	.	.	.	.	.	.	.	.	.	.	.	.	.	.	.	.	.	.	.	8bX\	.	8gg\	.	8r	.	8r	.	.	.
.	.	.	.	.	.	.	.	.	.	.	.	.	.	.	.	.	.	.	.	.	.	.	.	.	.	.	.	.	.	8cc\J	.	8aa-\J	.	8a-/	.	8cc\	.	.	.
!	!	!	!	!	!	!	!	!	!	!	!	!	!	!	!	!	!	!	!	!	!	!	!	!	!	!	!	!	!	!	!	!LO:LB:g=original	!	!	!	!	!	!	!
=4	=4	=4	=4	=4	=4	=4	=4	=4	=4	=4	=4	=4	=4	=4	=4	=4	=4	=4	=4	=4	=4	=4	=4	=4	=4	=4	=4	=4	=4	=4	=4	=4	=4	=4	=4	=4	=4	=4	=4
.	.	2.ryy	.	.	4r	.	4r	.	2.r	2.r	.	.	2.ryy	.	.	.	.	.	.	2.ryy	2.ryy	(>4B-/	.	4f\	.	.	.	4B-\	.	4dd\)	.	(8.ff\L	.	4a-/	.	2b-\	.	2.ryy	2.ryy
.	.	.	.	.	.	.	.	.	.	.	.	.	.	.	.	.	.	.	.	.	.	.	.	.	.	.	.	.	.	.	.	32gg\LL	.	.	.	.	.	.	.
.	.	.	.	.	.	.	.	.	.	.	.	.	.	.	.	.	.	.	.	.	.	.	.	.	.	.	.	.	.	.	.	32ff\JJJ	.	.	.	.	.	.	.
.	.	.	.	.	8r	.	8r	.	.	.	.	.	.	.	.	.	.	.	.	.	.	4e-\)	.	4g\	.	.	.	4E-\)	.	4ee-\	.	4ee-\)	.	4g/	.	.	.	.	.
.	.	.	.	.	8g/L	.	8b-\L	.	.	.	.	.	.	.	.	.	.	.	.	.	.	.	.	.	.	.	.	.	.	.	.	.	.	.	.	.	.	.	.
.	.	.	.	.	8c/	.	8an\	.	.	.	.	.	.	.	.	.	.	.	.	.	.	4r	.	4r	.	.	.	4r	.	4r	.	4r	.	4r	.	4r	.	.	.
.	.	.	.	.	8f/J	.	8a-X\J	.	.	.	.	.	.	.	.	.	.	.	.	.	.	.	.	.	.	.	.	.	.	.	.	.	.	.	.	.	.	.	.
!	!	!	!	!	!	!	!LO:LB:g=original	!	!	!	!	!	!	!	!	!	!	!	!	!	!	!	!	!	!	!	!	!	!	!	!	!	!	!	!	!	!	!	!
=5	=5	=5	=5	=5	=5	=5	=5	=5	=5	=5	=5	=5	=5	=5	=5	=5	=5	=5	=5	=5	=5	=5	=5	=5	=5	=5	=5	=5	=5	=5	=5	=5	=5	=5	=5	=5	=5	=5	=5
!	!LO:DY:b:t=po	!	!	!LO:DY:b:r	!	!	!	!	!	!	!	!	!	!	!	!	!	!	!	!	!	!LO:TX:a:t=9.	!	!LO:TX:a:t=9.	!	!	!	!LO:TX:a:t=2	!	!LO:TX:a:t=2	!	!LO:TX:a:t=2.	!	!LO:TX:a:t=2	!	!	!	!	!
4E-\	p	2.ryy	8r	p	2.B-/	.	2.g/	.	2.r	2.r	2g\	O	2.ryy	0.r	.	0.r	.	0.r	.	2.ryy	2.ryy	0.r	.	0.r	.	0.r	.	1.r	.	1.r	.	1.r	.	1.r	.	1.r	.	2.ryy	2.ryy
.	.	.	(<8E-/L	.	.	.	.	.	.	.	.	.	.	.	.	.	.	.	.	.	.	.	.	.	.	.	.	.	.	.	.	.	.	.	.	.	.	.	.
4r	.	.	8G/	.	.	.	.	.	.	.	.	.	.	.	.	.	.	.	.	.	.	.	.	.	.	.	.	.	.	.	.	.	.	.	.	.	.	.	.
!	!	!	!	!	!	!	!	!	!	!	!	!	!	!	!	!	!	!	!	!	!	!	!	!	!	!	!	!	!	!	!	!	!	!	!	!LO:TX:a:t=2	!	!	!
.	.	.	8B-/	.	.	.	.	.	.	.	.	.	.	.	.	.	.	.	.	.	.	.	.	.	.	.	.	.	.	.	.	.	.	.	.	.	.	.	.
4r	.	.	8e-/	.	.	.	.	.	.	.	8.e-/	Rex	.	.	.	.	.	.	.	.	.	.	.	.	.	.	.	.	.	.	.	.	.	.	.	.	.	.	.
.	.	.	8B-/J)	.	.	.	.	.	.	.	.	.	.	.	.	.	.	.	.	.	.	.	.	.	.	.	.	.	.	.	.	.	.	.	.	.	.	.	.
.	.	.	.	.	.	.	.	.	.	.	16b-\	in-	.	.	.	.	.	.	.	.	.	.	.	.	.	.	.	.	.	.	.	.	.	.	.	.	.	.	.
=6	=6	=6	=6	=6	=6	=6	=6	=6	=6	=6	=6	=6	=6	=6	=6	=6	=6	=6	=6	=6	=6	=6	=6	=6	=6	=6	=6	=6	=6	=6	=6	=6	=6	=6	=6	=6	=6	=6	=6
4E-\	.	2.ryy	8r	.	2.g/	.	2.b-\	.	2.r	2.r	4b-\	-ten-	2.ryy	.	.	.	.	.	.	2.ryy	2.ryy	.	.	.	.	.	.	.	.	.	.	.	.	.	.	.	.	2.ryy	2.ryy
.	.	.	(<8G/L	.	.	.	.	.	.	.	.	.	.	.	.	.	.	.	.	.	.	.	.	.	.	.	.	.	.	.	.	.	.	.	.	.	.	.	.
4r	.	.	8B-/	.	.	.	.	.	.	.	(>4.g\	-de	.	.	.	.	.	.	.	.	.	.	.	.	.	.	.	.	.	.	.	.	.	.	.	.	.	.	.
.	.	.	8e-/	.	.	.	.	.	.	.	.	.	.	.	.	.	.	.	.	.	.	.	.	.	.	.	.	.	.	.	.	.	.	.	.	.	.	.	.
4r	.	.	8g/	.	.	.	.	.	.	.	.	.	.	.	.	.	.	.	.	.	.	.	.	.	.	.	.	.	.	.	.	.	.	.	.	.	.	.	.
.	.	.	8e-/J)	.	.	.	.	.	.	.	8ee-\)	.	.	.	.	.	.	.	.	.	.	.	.	.	.	.	.	.	.	.	.	.	.	.	.	.	.	.	.
!	!	!	!LO:LB:g=original	!	!	!	!	!	!	!	!	!	!	!	!	!	!	!	!	!	!	!	!	!	!	!	!	!	!LO:LB:g=original	!	!	!	!	!LO:LB:g=original	!	!	!	!	!
=7	=7	=7	=7	=7	=7	=7	=7	=7	=7	=7	=7	=7	=7	=7	=7	=7	=7	=7	=7	=7	=7	=7	=7	=7	=7	=7	=7	=7	=7	=7	=7	=7	=7	=7	=7	=7	=7	=7	=7
.	.	.	.	.	.	.	.	.	.	.	8qdd/	.	.	.	.	.	.	.	.	.	.	.	.	.	.	.	.	.	.	.	.	.	.	.	.	.	.	.	.
8E-\	.	2.ryy	8c\L	.	8a-/	.	8cc\	.	2.r	2.r	8.cc\	Hos-	2.ryy	.	.	.	.	.	.	2.ryy	2.ryy	.	.	.	.	.	.	4r	.	4r	.	4r	.	4r	.	4r	.	2.ryy	2.ryy
8r	.	.	8e-\J	.	8r	.	8r	.	.	.	.	.	.	.	.	.	.	.	.	.	.	.	.	.	.	.	.	.	.	.	.	.	.	.	.	.	.	.	.
.	.	.	.	.	.	.	.	.	.	.	16b-\	-ti-	.	.	.	.	.	.	.	.	.	.	.	.	.	.	.	.	.	.	.	.	.	.	.	.	.	.	.
!	!	!	!	!	!	!	!	!	!	!	!	!	!	!	!	!	!	!	!	!	!	!	!	!	!	!	!	!	!	!	!	!	!	!LO:TX:b:i:t=Solo	!	!LO:TX:b:i:t=Solo	!	!	!
8EE-/	.	.	8E-/	.	8g/	.	8b-\	.	.	.	4b-\	-as	.	.	.	.	.	.	.	.	.	.	.	.	.	.	.	8r	.	8r	.	8r	.	8r	.	8r	.	.	.
!	!	!	!	!	!	!	!	!	!	!	!	!	!	!	!	!	!	!	!	!	!	!	!	!	!	!	!	!	!LO:DY:b	!	!LO:DY:b:t=po	!	!	!	!	!	!	!	!
8r	.	.	8r	.	8r	.	8r	.	.	.	.	.	.	.	.	.	.	.	.	.	.	.	.	.	.	.	.	(>8e-\L	p	(>8e-\L	p	(>8gg\L	.	4b-\	.	(>4b-\	.	.	.
!	!	!	!	!	!	!	!	!	!	!	!	!	!	!	!	!	!	!	!	!	!	!	!	!	!	!	!	!LO:TX:b:i:t=solo	!	!	!	!	!	!	!	!	!	!	!
4r	.	.	4r	.	8r	.	8r	.	.	.	8r	.	.	.	.	.	.	.	.	.	.	.	.	.	.	.	.	8d\	.	8f\	.	8ff\	.	.	.	.	.	.	.
!	!	!	!	!	!	!	!	!	!	!	!	!	!	!	!	!	!	!	!	!	!	!	!	!	!	!	!	!	!	!	!	!	!	!	!LO:DY:b:t=po	!	!LO:DY:b:t=po	!	!
.	.	.	.	.	8b-\	.	(>8b-\	.	.	.	8b-\	de-	.	.	.	.	.	.	.	.	.	.	.	.	.	.	.	8B-\J)	.	8b-\J)	.	8b-\J)	.	8b-\	p	8b-\)	p	.	.
!LO:LB:g=original	!	!	!	!	!	!	!	!	!	!	!LO:LB:g=original	!	!	!	!	!	!	!	!	!	!	!	!	!	!	!	!	!	!	!	!	!	!	!	!	!	!	!	!
=8	=8	=8	=8	=8	=8	=8	=8	=8	=8	=8	=8	=8	=8	=8	=8	=8	=8	=8	=8	=8	=8	=8	=8	=8	=8	=8	=8	=8	=8	=8	=8	=8	=8	=8	=8	=8	=8	=8	=8
4r	.	2.ryy	4r	.	8an/L	.	8cc\L	.	2.r	2.r	8cc\	-fun-	2.ryy	.	.	.	.	.	.	2.ryy	2.ryy	.	.	.	.	.	.	2.r	.	2.r	.	2.r	.	2.r	.	2.r	.	2.ryy	2.ryy
.	.	.	.	.	8a-X/	.	8dd\	.	.	.	8dd\	-cto	.	.	.	.	.	.	.	.	.	.	.	.	.	.	.	.	.	.	.	.	.	.	.	.	.	.	.
!	!	!	!	!	!	!	!	!	!	!	!	!	!	!	!	!	!	!	!	!	!	!	!	!	!	!	!	!LO:TX:a:t=1	!	!LO:TX:a:t=1	!	!	!	!	!	!	!	!	!
4r	.	.	4r	.	8g/	.	8ee-\	.	.	.	8ee-\L	do-	.	.	.	.	.	.	.	.	.	.	.	.	.	.	.	.	.	.	.	.	.	.	.	.	.	.	.
.	.	.	.	.	8a-/	.	8ff\	.	.	.	8ff\J	.	.	.	.	.	.	.	.	.	.	.	.	.	.	.	.	.	.	.	.	.	.	.	.	.	.	.	.
!	!LO:DY:b	!	!	!	!	!	!	!	!	!	!	!	!	!	!	!	!	!	!	!	!	!	!	!	!	!	!	!	!	!	!	!	!	!	!	!	!	!	!
4BB-/	pp	.	4d\	.	8b-/	.	8gg\	.	.	.	8gg\L	-na	.	.	.	.	.	.	.	.	.	.	.	.	.	.	.	.	.	.	.	.	.	.	.	.	.	.	.
.	.	.	.	.	8a-/J	.	8ff\J)	.	.	.	8ff\J	.	.	.	.	.	.	.	.	.	.	.	.	.	.	.	.	.	.	.	.	.	.	.	.	.	.	.	.
!	!	!	!	!	!LO:LB:g=original	!	!	!	!	!	!	!	!	!	!	!	!	!	!	!	!	!	!	!	!	!	!LO:LB:g=original	!	!	!	!	!	!	!	!	!	!	!	!
=9	=9	=9	=9	=9	=9	=9	=9	=9	=9	=9	=9	=9	=9	=9	=9	=9	=9	=9	=9	=9	=9	=9	=9	=9	=9	=9	=9	=9	=9	=9	=9	=9	=9	=9	=9	=9	=9	=9	=9
(<2D/	.	2.ryy	4d\	.	4a-/	.	(>4ff\	.	2.r	2.r	8.ff\	pre-	2.ryy	0.r	.	0.r	.	0.r	.	2.ryy	2.ryy	0.r	.	0.r	.	0.r	.	4r	.	4r	.	4r	.	4r	.	4r	.	2.ryy	2.ryy
.	.	.	.	.	.	.	.	.	.	.	16ee-\	-mi-	.	.	.	.	.	.	.	.	.	.	.	.	.	.	.	.	.	.	.	.	.	.	.	.	.	.	.
.	.	.	4e-\	.	4g/	.	4ee-\)	.	.	.	4ee-\	-um	.	.	.	.	.	.	.	.	.	.	.	.	.	.	.	8r	.	8r	.	8r	.	8r	.	8r	.	.	.
!	!	!	!	!	!	!	!	!	!	!	!	!	!	!	!	!	!	!	!	!	!	!	!	!	!	!	!	!	!	!	!LO:DY:b:t=po:rj	!	!	!	!	!	!LO:DY:b:t=po	!	!
.	.	.	.	.	.	.	.	.	.	.	.	.	.	.	.	.	.	.	.	.	.	.	.	.	.	.	.	8e-\L	p	8cc\L	p	8ee-\L	.	4g/	.	4g/	p	.	.
!	!	!	!	!	!	!	!	!	!	!	!	!	!	!	!	!	!	!	!	!	!	!	!	!	!	!	!	!LO:TX:b:i:t=Solo	!	!	!	!	!	!	!	!	!	!	!
.	.	.	.	.	.	.	.	.	.	.	.	.	.	.	.	.	.	.	.	.	.	.	.	.	.	.	.	.	.	.	.	8qgg/	.	.	.	.	.	.	.
4BB-/)	.	.	4r	.	4r	.	4r	.	.	.	8r	.	.	.	.	.	.	.	.	.	.	.	.	.	.	.	.	(>8B-\	.	8dd-X\	.	8ff\	.	.	.	.	.	.	.
!	!	!	!	!	!	!	!	!	!	!	!	!	!	!	!	!	!	!	!	!	!	!	!	!	!	!	!	!	!	!	!	!	!	!	!	!LO:TX:b:i:t=Solo	!	!	!
.	.	.	.	.	.	.	.	.	.	.	8ee-\	de-	.	.	.	.	.	.	.	.	.	.	.	.	.	.	.	8d-X\J	.	8b-\J	.	8ee-\J	.	(<8g/	.	(<8g/	.	.	.
=10	=10	=10	=10	=10	=10	=10	=10	=10	=10	=10	=10	=10	=10	=10	=10	=10	=10	=10	=10	=10	=10	=10	=10	=10	=10	=10	=10	=10	=10	=10	=10	=10	=10	=10	=10	=10	=10	=10	=10
!	!	!	!	!	!	!	!	!	!	!	!	!	!	!	!	!	!	!	!	!	!	!	!	!	!	!	!	!	!	!LO:TX:a:t=3.	!	!LO:TX:a:t=3.	!	!	!	!	!	!	!
8AA-/	.	2.ryy	2.r	.	8r	.	8r	.	2.r	2.r	4ee-\	-fun-	2.ryy	.	.	.	.	.	.	2.ryy	2.ryy	.	.	.	.	.	.	8c\)	.	1.r	.	1.r	.	8a-/)	.	8a-/)	.	2.ryy	2.ryy
8r	.	.	.	.	8cc\	.	8ee-\	.	.	.	.	.	.	.	.	.	.	.	.	.	.	.	.	.	.	.	.	8r	.	.	.	.	.	8r	.	8r	.	.	.
8AA-/	.	.	.	.	8r	.	8r	.	.	.	8cc\	-cto	.	.	.	.	.	.	.	.	.	.	.	.	.	.	.	4r	.	.	.	.	.	4r	.	4r	.	.	.
!	!	!	!	!	!	!	!	!	!	!	!LO:SIC:s=16aa-	!	!	!	!	!	!	!	!	!	!	!	!	!	!	!	!	!	!	!	!	!	!	!	!	!	!	!	!
8r	.	.	.	.	8cc\	.	8ee-\	.	.	.	16aa\LL	de-	.	.	.	.	.	.	.	.	.	.	.	.	.	.	.	.	.	.	.	.	.	.	.	.	.	.	.
!	!	!	!LO:TX:a:t=1.	!	!	!	!	!	!	!	!	!	!	!	!	!	!	!	!	!	!	!	!	!	!	!	!	!	!	!	!	!	!	!	!	!	!	!	!
.	.	.	.	.	.	.	.	.	.	.	16gg\JJ	.	.	.	.	.	.	.	.	.	.	.	.	.	.	.	.	.	.	.	.	.	.	.	.	.	.	.	.
8AA-/	.	.	.	.	8r	.	8r	.	.	.	16ff\LL	-fun-	.	.	.	.	.	.	.	.	.	.	.	.	.	.	.	4r	.	.	.	.	.	4r	.	4r	.	.	.
.	.	.	.	.	.	.	.	.	.	.	16ee-\JJ	.	.	.	.	.	.	.	.	.	.	.	.	.	.	.	.	.	.	.	.	.	.	.	.	.	.	.	.
8r	.	.	.	.	8a-/	.	8cc\	.	.	.	16dd\LL	-cto	.	.	.	.	.	.	.	.	.	.	.	.	.	.	.	.	.	.	.	.	.	.	.	.	.	.	.
.	.	.	.	.	.	.	.	.	.	.	16cc\JJ	.	.	.	.	.	.	.	.	.	.	.	.	.	.	.	.	.	.	.	.	.	.	.	.	.	.	.	.
!	!	!	!	!	!	!	!LO:LB:g=original	!	!	!	!	!	!	!	!	!	!	!	!	!	!	!	!	!	!	!	!	!	!	!	!	!	!	!	!LO:PB:g=original	!	!	!	!
=11	=11	=11	=11	=11	=11	=11	=11	=11	=11	=11	=11	=11	=11	=11	=11	=11	=11	=11	=11	=11	=11	=11	=11	=11	=11	=11	=11	=11	=11	=11	=11	=11	=11	=11	=11	=11	=11	=11	=11
!	!	!	!	!	!	!	!	!	!	!	!	!	!	!	!	!	!	!	!	!	!	!	!	!	!	!	!	!LO:TX:a:t=2	!	!	!	!	!	!LO:TX:a:t=2	!	!LO:TX:a:t=2	!	!	!
(<4BB-/	.	2.ryy	4r	.	4g/	.	4b-/	.	2.r	2.r	4b-\	do-	2.ryy	.	.	.	.	.	.	2.ryy	2.ryy	.	.	.	.	.	.	1.r	.	.	.	.	.	1.r	.	1.r	.	2.ryy	2.ryy
!	!	!	!	!	!	!	!LO:SIC:s=4a-	!	!	!	!LO:SIC:s=4a-	!	!	!	!	!	!	!	!	!	!	!	!	!	!	!	!	!	!	!	!	!	!	!	!	!	!	!	!
4BBn/	.	.	4d\	.	4f/	.	4a/	.	.	.	4a\	.	.	.	.	.	.	.	.	.	.	.	.	.	.	.	.	.	.	.	.	.	.	.	.	.	.	.	.
!	!	!	!	!	!	!	!	!	!	!	!LO:TX:b:i:t=Volti	!	!	!	!	!	!	!	!	!	!	!	!	!	!	!	!	!	!	!	!	!	!	!	!	!	!	!	!
4C/)	.	.	4e-\	.	4e-/	.	4g/	.	.	.	4g\	-na	.	.	.	.	.	.	.	.	.	.	.	.	.	.	.	.	.	.	.	.	.	.	.	.	.	.	.
!	!	!	!	!	!	!	!	!	!	!	!LO:PB:g=original	!	!	!	!	!	!	!	!	!	!	!	!	!	!	!	!	!	!	!	!	!	!	!	!	!	!	!	!
=12	=12	=12	=12	=12	=12	=12	=12	=12	=12	=12	=12	=12	=12	=12	=12	=12	=12	=12	=12	=12	=12	=12	=12	=12	=12	=12	=12	=12	=12	=12	=12	=12	=12	=12	=12	=12	=12	=12	=12
*	*	*	*	*	*	*	*	*	*	*	*k[b-e-a-]	*	*	*	*	*	*	*	*	*	*	*	*	*	*	*	*	*	*	*	*	*	*	*	*	*	*	*	*
!	!	!	!	!	!	!	!	!	!	!	!LO:SIC:l:s=prae	!	!	!	!	!	!	!	!	!	!	!	!	!	!	!	!	!	!	!	!	!	!	!	!	!	!	!	!
!	!	!	!	!	!	!	!	!	!	!	!LO:TX:t=P:problem=tonacja zapisana po przewrocie karty	!	!	!	!	!	!	!	!	!	!	!	!	!	!	!	!	!	!	!	!	!	!	!	!	!	!	!	!
2.BB-X/	.	2.ryy	8r	.	8r	.	8r	.	2.r	2.r	2b-\	pre-	2.ryy	.	.	.	.	.	.	2.ryy	2.ryy	.	.	.	.	.	.	.	.	2.r	.	2.r	.	.	.	.	.	2.ryy	2.ryy
.	.	.	8B-/L	.	8g/L	.	8b-/L	.	.	.	.	.	.	.	.	.	.	.	.	.	.	.	.	.	.	.	.	.	.	.	.	.	.	.	.	.	.	.	.
.	.	.	8B-/	.	8g/	.	8b-/	.	.	.	.	.	.	.	.	.	.	.	.	.	.	.	.	.	.	.	.	.	.	.	.	.	.	.	.	.	.	.	.
.	.	.	8B-/	.	8g/	.	8b-/	.	.	.	.	.	.	.	.	.	.	.	.	.	.	.	.	.	.	.	.	.	.	.	.	.	.	.	.	.	.	.	.
!	!	!	!	!	!	!	!LO:SIC:s=8a-	!	!	!	!	!	!	!	!	!	!	!	!	!	!	!	!	!	!	!	!	!	!	!	!	!	!	!	!	!	!	!	!
.	.	.	8c/	.	8f/	.	8a/	.	.	.	8.a-/L	.	.	.	.	.	.	.	.	.	.	.	.	.	.	.	.	.	.	.	.	.	.	.	.	.	.	.	.
.	.	.	8d/J	.	8A-/J	.	8f/J	.	.	.	.	.	.	.	.	.	.	.	.	.	.	.	.	.	.	.	.	.	.	.	.	.	.	.	.	.	.	.	.
.	.	.	.	.	.	.	.	.	.	.	16f/Jk	-mi-	.	.	.	.	.	.	.	.	.	.	.	.	.	.	.	.	.	.	.	.	.	.	.	.	.	.	.
!	!	!	!	!	!	!	!	!	!	!	!	!	!	!	!	!	!	!	!	!	!	!	!	!	!	!	!	!	!	!	!	!LO:LB:g=original	!	!	!	!	!	!	!
=13	=13	=13	=13	=13	=13	=13	=13	=13	=13	=13	=13	=13	=13	=13	=13	=13	=13	=13	=13	=13	=13	=13	=13	=13	=13	=13	=13	=13	=13	=13	=13	=13	=13	=13	=13	=13	=13	=13	=13
8E-\L	.	2.ryy	8e-\L	.	8G/L	.	8e-/L	.	2.r	2.r	4e-/	-um,	2.ryy	2.r	.	2.r	.	2.r	.	2.ryy	2.ryy	2.r	.	2.r	.	4r	.	4r	.	8r	.	8r	.	4r	.	4r	.	2.ryy	2.ryy
8E-\J	.	.	8B-\J	.	8G/J	.	8e-/J	.	.	.	.	.	.	.	.	.	.	.	.	.	.	.	.	.	.	.	.	.	.	4r	.	4r	.	.	.	.	.	.	.
4E-\	.	.	4B-\	.	4G/	.	4e-/	.	.	.	4r	.	.	.	.	.	.	.	.	.	.	.	.	.	.	8r	.	8r	.	.	.	.	.	8r	.	8r	.	.	.
!	!	!	!	!	!	!	!	!	!	!	!	!	!	!	!	!	!	!	!	!	!	!	!	!	!	!	!	!	!LO:DY:b:t=po	!	!LO:DY:b:t=po	!	!LO:DY:b:t=po	!	!LO:DY:b:t=po	!	!LO:DY:b:t=po:rj	!	!
!	!	!	!	!	!	!	!	!	!	!	!	!	!	!	!	!	!	!	!	!	!	!	!	!	!	!	!LO:HP:b	!	!	!	!	!	!	!	!	!	!	!	!
!	!	!	!	!	!	!	!	!	!	!	!	!	!	!	!	!	!	!	!	!	!	!	!	!	!	!	!LO:DY:b	!	!LO:HP:b	!	!	!	!	!	!	!	!	!	!
.	.	.	.	.	.	.	.	.	.	.	.	.	.	.	.	.	.	.	.	.	.	.	.	.	.	8B-\L	p <	(8B-\L	p <	(>4b-\	p	(>8b-\L	p	8g/L	p	8b-\L	p	.	.
!	!	!	!	!	!	!	!LO:TX:b:i:t=Volti Subitto.	!	!	!	!	!	!	!	!	!	!	!	!	!	!	!	!	!	!	!	!	!	!	!	!	!	!	!	!	!	!	!	!
4r	.	.	4r	.	4r	.	4r	.	.	.	4r	.	.	.	.	.	.	.	.	.	.	.	.	.	.	8G\	.	8G\	.	.	.	8ee-\	.	(<8e-/	.	8b-\	.	.	.
.	.	.	.	.	.	.	.	.	.	.	.	.	.	.	.	.	.	.	.	.	.	.	.	.	.	8B-\J	[[	8B-\J	[[	8dd\	.	8ff\J)	.	8b-/J)	.	8b-\J	.	.	.
!LO:LB:g=original	!	!	!LO:LB:g=original	!	!	!	!LO:PB:g=original	!	!	!	!	!	!	!	!	!	!	!	!	!	!	!	!	!	!	!	!	!	!	!	!	!	!	!	!	!	!	!	!
!	!	!	!	!	!	!	!	!	!	!	!	!	!	!	!	!	!	!	!	!	!	!	!	!LO:LB:g=original	!	!	!	!	!	!	!	!	!	!LO:LB:g=original	!	!	!	!	!
=14	=14	=14	=14	=14	=14	=14	=14	=14	=14	=14	=14	=14	=14	=14	=14	=14	=14	=14	=14	=14	=14	=14	=14	=14	=14	=14	=14	=14	=14	=14	=14	=14	=14	=14	=14	=14	=14	=14	=14
*	*	*	*	*	*	*	*k[b-e-a-]	*	*	*	*	*	*	*	*	*	*	*	*	*	*	*	*	*	*	*	*	*	*	*	*	*	*	*	*	*	*	*	*
!	!LO:DY:b	!	!	!	!	!	!LO:TX:t=P:problem=na początku nowej strony podana właściwa tonacja	!	!	!	!	!	!	!	!	!	!	!	!	!	!	!	!	!LO:DY:b	!	!	!	!LO:DY:b	!	!LO:DY:b	!	!	!	!	!	!	!	!	!
8E-\	sf	2.ryy	16r	.	4r	.	4r	.	2.r	2.r	4ee-\	scan-	2.ryy	8E-\	sfz	8B-\	sf	8g\	sfz	2.ryy	2.ryy	(<2.G/	sfz	(>2.e-\	sfz	8e-\	sf	8e-\)	sf	8ee-\)	.	8gg\	sf	8b-\	sfz	8b-\	fz	2.ryy	2.ryy
.	.	.	16G/LL	.	.	.	.	.	.	.	.	.	.	.	.	.	.	.	.	.	.	.	.	.	.	.	.	.	.	.	.	.	.	.	.	.	.	.	.
8r	.	.	16B-/	.	.	.	.	.	.	.	.	.	.	8r	.	8r	.	8r	.	.	.	.	.	.	.	8r	.	8r	.	8r	.	8r	.	8r	.	8r	.	.	.
.	.	.	16G/JJ	.	.	.	.	.	.	.	.	.	.	.	.	.	.	.	.	.	.	.	.	.	.	.	.	.	.	.	.	.	.	.	.	.	.	.	.
!	!LO:DY:b	!	!	!	!	!	!	!	!	!	!	!	!	!	!	!	!	!	!	!	!	!	!	!	!	!	!	!	!	!	!	!	!	!	!	!	!	!	!
8E-\	p	.	8e-\	.	16r	.	4r	.	.	.	8ee-\	-dens	.	4r	.	4r	.	4r	.	.	.	.	.	.	.	4r	.	4r	.	4r	.	4r	.	4r	.	4r	.	.	.
.	.	.	.	.	16B-/LL	.	.	.	.	.	.	.	.	.	.	.	.	.	.	.	.	.	.	.	.	.	.	.	.	.	.	.	.	.	.	.	.	.	.
8r	.	.	8r	.	16e-/	.	.	.	.	.	8b-\	ar-	.	.	.	.	.	.	.	.	.	.	.	.	.	.	.	.	.	.	.	.	.	.	.	.	.	.	.
.	.	.	.	.	16B-/JJ	.	.	.	.	.	.	.	.	.	.	.	.	.	.	.	.	.	.	.	.	.	.	.	.	.	.	.	.	.	.	.	.	.	.
!	!	!	!	!	!	!	!	!LO:DY:b	!	!	!	!	!	!	!	!	!	!	!	!	!	!	!	!	!	!	!	!	!	!	!	!	!	!	!	!	!	!	!
8E-\	.	.	4r	.	8g/	.	16r	p	.	.	8g\	-ces	.	4r	.	4r	.	4r	.	.	.	.	.	.	.	4r	.	4r	.	4r	.	4r	.	4r	.	4r	.	.	.
.	.	.	.	.	.	.	(<16e-/LL	.	.	.	.	.	.	.	.	.	.	.	.	.	.	.	.	.	.	.	.	.	.	.	.	.	.	.	.	.	.	.	.
8r	.	.	.	.	8r	.	16g/)	.	.	.	8e-/	in	.	.	.	.	.	.	.	.	.	.	.	.	.	.	.	.	.	.	.	.	.	.	.	.	.	.	.
.	.	.	.	.	.	.	16e-/JJ|<	.	.	.	.	.	.	.	.	.	.	.	.	.	.	.	.	.	.	.	.	.	.	.	.	.	.	.	.	.	.	.	.
!	!	!	!	!	!LO:LB:g=original	!	!	!	!	!	!	!	!	!	!	!	!	!LO:LB:g=original	!	!	!	!	!	!	!LO:LB:g=original	!	!	!	!LO:LB:g=original	!	!	!	!	!	!	!	!	!	!
=15	=15	=15	=15	=15	=15	=15	=15	=15	=15	=15	=15	=15	=15	=15	=15	=15	=15	=15	=15	=15	=15	=15	=15	=15	=15	=15	=15	=15	=15	=15	=15	=15	=15	=15	=15	=15	=15	=15	=15
8D\	.	2.ryy	16r	.	2.r	.	8b-\	.	2.r	2.r	8.B-/	pat-	2.ryy	2.r	.	2.r	.	2.r	.	2.ryy	2.ryy	8B-/)	.	8e-\)	.	4r	.	4r	.	4r	.	4r	.	4r	.	4r	.	2.ryy	2.ryy
.	.	.	16B-/LL	.	.	.	.	.	.	.	.	.	.	.	.	.	.	.	.	.	.	.	.	.	.	.	.	.	.	.	.	.	.	.	.	.	.	.	.
8r	.	.	16d/	.	.	.	8r	.	.	.	.	.	.	.	.	.	.	.	.	.	.	8r	.	8r	.	.	.	.	.	.	.	.	.	.	.	.	.	.	.
.	.	.	16B-/JJ	.	.	.	.	.	.	.	32d/LLL	-ri-	.	.	.	.	.	.	.	.	.	.	.	.	.	.	.	.	.	.	.	.	.	.	.	.	.	.	.
!	!	!	!	!	!LO:TX:a:t=1.	!	!	!	!	!	!	!	!	!LO:TX:a:t=1	!	!LO:TX:a:t=1	!	!LO:TX:a:t=1	!	!	!	!	!	!	!	!	!	!	!	!	!	!	!	!	!	!	!	!	!
.	.	.	.	.	.	.	.	.	.	.	32c/JJJ	.	.	.	.	.	.	.	.	.	.	.	.	.	.	.	.	.	.	.	.	.	.	.	.	.	.	.	.
4r	.	.	8f\	.	.	.	4r	.	.	.	4B-/	-as,	.	.	.	.	.	.	.	.	.	4r	.	4r	.	8r	.	8r	.	8r	.	8r	.	8r	.	8r	.	.	.
!	!	!	!	!	!	!	!	!	!	!	!	!	!	!	!	!	!	!	!	!	!	!	!	!	!	!	!	!	!LO:DY:b:t=po	!	!	!	!LO:DY:b:t=po	!	!LO:DY:b:t=po	!	!	!	!
!	!	!	!	!	!	!	!	!	!	!	!	!	!	!	!	!	!	!	!	!	!	!	!	!	!	!	!LO:DY:b:t=po	!	!LO:HP:b	!	!	!	!	!	!	!	!	!	!
.	.	.	8r	.	.	.	.	.	.	.	.	.	.	.	.	.	.	.	.	.	.	.	.	.	.	(>8d\L	p <	(>8d\L	p <	4ff\	.	(>8ff\L	p	(>8b-\L	p	8b-\L	.	.	.
!	!	!	!	!	!	!	!	!	!	!	!	!	!	!	!	!	!	!	!	!	!	!	!	!	!	!	!	!	!	!	!	!	!LO:HP:b	!	!	!	!	!	!
4r	.	.	4r	.	.	.	4r	.	.	.	4r	.	.	.	.	.	.	.	.	.	.	4r	.	4r	.	8d-X\	.	8d-X\	.	.	.	8gg\	<	8b-\	.	8b-\	.	.	.
.	.	.	.	.	.	.	.	.	.	.	.	.	.	.	.	.	.	.	.	.	.	.	.	.	.	8c\J	[[	8c\J	[[	(>8eeX\	.	8bb-\J)	[[	8g\J)	.	(>8cc\J	.	.	.
!	!	!	!	!	!	!	!	!	!	!	!	!	!	!	!	!	!	!	!	!	!	!LO:LB:g=original	!	!	!	!	!	!	!	!	!	!	!	!	!	!	!	!	!
=16	=16	=16	=16	=16	=16	=16	=16	=16	=16	=16	=16	=16	=16	=16	=16	=16	=16	=16	=16	=16	=16	=16	=16	=16	=16	=16	=16	=16	=16	=16	=16	=16	=16	=16	=16	=16	=16	=16	=16
!	!LO:DY:b	!	!	!	!	!	!	!	!	!	!	!	!	!	!	!	!	!	!	!	!	!	!	!	!	!	!LO:DY:b	!	!LO:DY:b	!	!	!	!LO:DY:b	!	!	!	!	!	!
8F\	sf	2.ryy	16r	.	4r	.	4r	.	2.r	2.r	4ff\	scan-	2.ryy	8F\	sfz	8c\	sf	8a-\	sf	2.ryy	2.ryy	(>2.f\	sfz	(>2.f\	sfz	8f\)	f	8f\)	sf	8ff\)	.	8aa-\	sf	8a-/	.	8cc\)	sf	2.ryy	2.ryy
!	!	!	!LO:SIC:s=16A-	!	!	!	!	!	!	!	!	!	!	!	!	!	!	!	!	!	!	!	!	!	!	!	!	!	!	!	!	!	!	!	!	!	!	!	!
.	.	.	16A/LL	.	.	.	.	.	.	.	.	.	.	.	.	.	.	.	.	.	.	.	.	.	.	.	.	.	.	.	.	.	.	.	.	.	.	.	.
8r	.	.	16c/	.	.	.	.	.	.	.	.	.	.	8r	.	8r	.	8r	.	.	.	.	.	.	.	8r	.	8r	.	8r	.	8r	.	8r	.	8r	.	.	.
!	!	!	!LO:SIC:s=16A-	!	!	!	!	!	!	!	!	!	!	!	!	!	!	!	!	!	!	!	!	!	!	!	!	!	!	!	!	!	!	!	!	!	!	!	!
.	.	.	16A/JJ	.	.	.	.	.	.	.	.	.	.	.	.	.	.	.	.	.	.	.	.	.	.	.	.	.	.	.	.	.	.	.	.	.	.	.	.
!	!LO:DY:b	!	!	!	!	!	!	!	!	!	!	!	!	!	!	!	!	!	!	!	!	!	!	!	!	!	!	!	!	!	!	!	!	!	!	!	!	!	!
8F\	p	.	8f\	.	16r	.	4r	.	.	.	8ff\	-dens	.	4r	.	4r	.	4r	.	.	.	.	.	.	.	4r	.	4r	.	4r	.	4r	.	4r	.	4r	.	.	.
.	.	.	.	.	16c/LL	.	.	.	.	.	.	.	.	.	.	.	.	.	.	.	.	.	.	.	.	.	.	.	.	.	.	.	.	.	.	.	.	.	.
8r	.	.	8r	.	16f/	.	.	.	.	.	8cc\	ar-	.	.	.	.	.	.	.	.	.	.	.	.	.	.	.	.	.	.	.	.	.	.	.	.	.	.	.
.	.	.	.	.	16c/JJ	.	.	.	.	.	.	.	.	.	.	.	.	.	.	.	.	.	.	.	.	.	.	.	.	.	.	.	.	.	.	.	.	.	.
!	!	!	!	!	!	!	!	!LO:DY:b	!	!	!	!	!	!	!	!	!	!	!	!	!	!	!	!	!	!	!	!	!	!	!	!	!	!	!	!	!	!	!
8F\	.	.	4r	.	8a-/	.	16r	p	.	.	8a-\	-ces	.	4r	.	4r	.	4r	.	.	.	.	.	.	.	4r	.	4r	.	4r	.	4r	.	4r	.	4r	.	.	.
.	.	.	.	.	.	.	(<16f/LL	.	.	.	.	.	.	.	.	.	.	.	.	.	.	.	.	.	.	.	.	.	.	.	.	.	.	.	.	.	.	.	.
8r	.	.	.	.	8r	.	16a-/)	.	.	.	8f\	in	.	.	.	.	.	.	.	.	.	.	.	.	.	.	.	.	.	.	.	.	.	.	.	.	.	.	.
.	.	.	.	.	.	.	16f/JJ|<	.	.	.	.	.	.	.	.	.	.	.	.	.	.	.	.	.	.	.	.	.	.	.	.	.	.	.	.	.	.	.	.
!	!	!	!	!	!	!	!	!	!	!	!LO:LB:g=original	!	!	!	!	!	!	!	!	!	!	!	!	!	!	!	!LO:LB:g=original	!	!	!	!	!	!	!	!	!	!	!	!
=17	=17	=17	=17	=17	=17	=17	=17	=17	=17	=17	=17	=17	=17	=17	=17	=17	=17	=17	=17	=17	=17	=17	=17	=17	=17	=17	=17	=17	=17	=17	=17	=17	=17	=17	=17	=17	=17	=17	=17
!	!	!	!	!	!	!	!	!	!	!	!	!	!	!LO:TX:a:t=4.	!	!LO:TX:a:t=4	!	!LO:TX:a:t=4	!	!	!	!	!	!	!	!LO:TX:a:t=4	!	!LO:TX:a:t=4.	!	!LO:TX:a:t=4.	!	!LO:TX:a:t=4.	!	!LO:TX:a:t=4	!	!LO:TX:a:t=4.	!	!	!
8En\	.	2.ryy	16r	.	4r	.	8cc\	.	2.r	2.r	8.c/	pa-	2.ryy	0.r	.	0.r	.	0.r	.	2.ryy	2.ryy	8g\)	p	8g\)	p	0.r	.	0.r	.	0.r	.	0.r	.	0.r	.	0.r	.	2.ryy	2.ryy
.	.	.	16c\LL	.	.	.	.	.	.	.	.	.	.	.	.	.	.	.	.	.	.	.	.	.	.	.	.	.	.	.	.	.	.	.	.	.	.	.	.
8r	.	.	16en\	.	.	.	8r	.	.	.	.	.	.	.	.	.	.	.	.	.	.	8r	.	8r	.	.	.	.	.	.	.	.	.	.	.	.	.	.	.
.	.	.	16c\JJ	.	.	.	.	.	.	.	32en/LLL	-tri-	.	.	.	.	.	.	.	.	.	.	.	.	.	.	.	.	.	.	.	.	.	.	.	.	.	.	.
.	.	.	.	.	.	.	.	.	.	.	32d/JJJ	.	.	.	.	.	.	.	.	.	.	.	.	.	.	.	.	.	.	.	.	.	.	.	.	.	.	.	.
!	!	!	!	!	!	!	!	!LO:DY:b	!	!	!	!	!	!	!	!	!	!	!	!	!	!	!	!	!	!	!	!	!	!	!	!	!	!	!	!	!	!	!
4r	.	.	8g\L	.	8r	.	8r	p	.	.	4c/	-as,	.	.	.	.	.	.	.	.	.	4r	.	4r	.	.	.	.	.	.	.	.	.	.	.	.	.	.	.
.	.	.	8e\	.	8g/L	.	8cc\L	.	.	.	.	.	.	.	.	.	.	.	.	.	.	.	.	.	.	.	.	.	.	.	.	.	.	.	.	.	.	.	.
(<4C/	.	.	8e\	.	8g/	.	8cc\	.	.	.	8r	.	.	.	.	.	.	.	.	.	.	4r	.	4r	.	.	.	.	.	.	.	.	.	.	.	.	.	.	.
!	!	!	!	!	!	!	!	!	!	!	!LO:SIC:l:s=ae	!	!	!	!	!	!	!	!	!	!	!	!	!	!	!	!	!	!	!	!	!	!	!	!	!	!	!	!
.	.	.	8e\J	.	8g/J	.	8cc\J	.	.	.	8b-\	e-	.	.	.	.	.	.	.	.	.	.	.	.	.	.	.	.	.	.	.	.	.	.	.	.	.	.	.
=18	=18	=18	=18	=18	=18	=18	=18	=18	=18	=18	=18	=18	=18	=18	=18	=18	=18	=18	=18	=18	=18	=18	=18	=18	=18	=18	=18	=18	=18	=18	=18	=18	=18	=18	=18	=18	=18	=18	=18
!	!	!	!	!	!	!	!	!	!	!	!	!	!	!	!	!	!	!	!	!	!	!LO:TX:a:t=3.	!	!LO:TX:a:t=3.	!	!	!	!	!	!	!	!	!	!	!	!	!	!	!
4F\)	.	2.ryy	4e-X\	.	4c/	.	8r	.	2.r	2.r	4b-\	-ter-	2.ryy	.	.	.	.	.	.	2.ryy	2.ryy	1.r	.	1.r	.	.	.	.	.	.	.	.	.	.	.	.	.	2.ryy	2.ryy
.	.	.	.	.	.	.	(>8b-\L	.	.	.	.	.	.	.	.	.	.	.	.	.	.	.	.	.	.	.	.	.	.	.	.	.	.	.	.	.	.	.	.
4r	.	.	8r	.	8r	.	8an\)	.	.	.	4an\	-num	.	.	.	.	.	.	.	.	.	.	.	.	.	.	.	.	.	.	.	.	.	.	.	.	.	.	.
.	.	.	8An/L	.	8cc\L	.	8ee-'\	.	.	.	.	.	.	.	.	.	.	.	.	.	.	.	.	.	.	.	.	.	.	.	.	.	.	.	.	.	.	.	.
(>4F\	.	.	8A/	.	8cc\	.	8ee-'\	.	.	.	8.r	.	.	.	.	.	.	.	.	.	.	.	.	.	.	.	.	.	.	.	.	.	.	.	.	.	.	.	.
.	.	.	8A/J	.	8cc\J	.	8ee-'\J	.	.	.	.	.	.	.	.	.	.	.	.	.	.	.	.	.	.	.	.	.	.	.	.	.	.	.	.	.	.	.	.
!	!	!	!	!	!	!	!	!	!	!	!LO:SIC:l:s=ae	!	!	!	!	!	!	!	!	!	!	!	!	!	!	!	!	!	!	!	!	!	!	!	!	!	!	!	!
.	.	.	.	.	.	.	.	.	.	.	16ee-\	e-	.	.	.	.	.	.	.	.	.	.	.	.	.	.	.	.	.	.	.	.	.	.	.	.	.	.	.
!	!	!	!LO:LB:g=original	!	!	!	!LO:LB:g=original	!	!	!	!	!	!	!	!	!	!	!	!	!	!	!	!	!	!	!	!	!	!	!	!	!	!	!	!	!	!	!	!
=19	=19	=19	=19	=19	=19	=19	=19	=19	=19	=19	=19	=19	=19	=19	=19	=19	=19	=19	=19	=19	=19	=19	=19	=19	=19	=19	=19	=19	=19	=19	=19	=19	=19	=19	=19	=19	=19	=19	=19
4G\)	.	2.ryy	8r	.	8r	.	8r	.	2.r	2.r	4ee-\	-ter-	2.ryy	.	.	.	.	.	.	2.ryy	2.ryy	.	.	.	.	.	.	.	.	.	.	.	.	.	.	.	.	2.ryy	2.ryy
.	.	.	8An/L	.	8cc\L	.	8ee-\L	.	.	.	.	.	.	.	.	.	.	.	.	.	.	.	.	.	.	.	.	.	.	.	.	.	.	.	.	.	.	.	.
4r	.	.	8B-/	.	8b-\	.	8dd\	.	.	.	4dd\	-num	.	.	.	.	.	.	.	.	.	.	.	.	.	.	.	.	.	.	.	.	.	.	.	.	.	.	.
.	.	.	8B-/J	.	8b-\J	.	8dd\J	.	.	.	.	.	.	.	.	.	.	.	.	.	.	.	.	.	.	.	.	.	.	.	.	.	.	.	.	.	.	.	.
.	.	.	.	.	.	.	.	.	.	.	8qdd/	.	.	.	.	.	.	.	.	.	.	.	.	.	.	.	.	.	.	.	.	.	.	.	.	.	.	.	.
4G\	.	.	8r	.	8r	.	8r	.	.	.	8.cc\	spec-	.	.	.	.	.	.	.	.	.	.	.	.	.	.	.	.	.	.	.	.	.	.	.	.	.	.	.
.	.	.	8B-/	.	8en/	.	8b-\	.	.	.	.	.	.	.	.	.	.	.	.	.	.	.	.	.	.	.	.	.	.	.	.	.	.	.	.	.	.	.	.
.	.	.	.	.	.	.	.	.	.	.	16b-\	-tet	.	.	.	.	.	.	.	.	.	.	.	.	.	.	.	.	.	.	.	.	.	.	.	.	.	.	.
!LO:LB:g=original	!	!	!	!	!LO:LB:g=original	!	!	!	!	!	!	!	!	!	!	!	!	!	!	!	!	!	!	!	!	!	!	!	!	!	!	!	!	!	!	!	!	!	!
=20	=20	=20	=20	=20	=20	=20	=20	=20	=20	=20	=20	=20	=20	=20	=20	=20	=20	=20	=20	=20	=20	=20	=20	=20	=20	=20	=20	=20	=20	=20	=20	=20	=20	=20	=20	=20	=20	=20	=20
2F\	.	2.ryy	8r	.	8r	.	8r	.	2.r	2.r	2b-\	so-	2.ryy	.	.	.	.	.	.	2.ryy	2.ryy	2.r	.	2.r	.	.	.	.	.	.	.	.	.	.	.	.	.	2.ryy	2.ryy
.	.	.	8d\L	.	8f/L	.	8b-\L	.	.	.	.	.	.	.	.	.	.	.	.	.	.	.	.	.	.	.	.	.	.	.	.	.	.	.	.	.	.	.	.
.	.	.	8d\	.	8f/	.	8b-\	.	.	.	.	.	.	.	.	.	.	.	.	.	.	.	.	.	.	.	.	.	.	.	.	.	.	.	.	.	.	.	.
.	.	.	8d\	.	8f/	.	8b-\	.	.	.	.	.	.	.	.	.	.	.	.	.	.	.	.	.	.	.	.	.	.	.	.	.	.	.	.	.	.	.	.
.	.	.	.	.	.	.	.	.	.	.	32qqcc/LLL	.	.	.	.	.	.	.	.	.	.	.	.	.	.	.	.	.	.	.	.	.	.	.	.	.	.	.	.
.	.	.	.	.	.	.	.	.	.	.	32qqb-/	.	.	.	.	.	.	.	.	.	.	.	.	.	.	.	.	.	.	.	.	.	.	.	.	.	.	.	.
.	.	.	.	.	.	.	.	.	.	.	32qqan/	.	.	.	.	.	.	.	.	.	.	.	.	.	.	.	.	.	.	.	.	.	.	.	.	.	.	.	.
.	.	.	.	.	.	.	.	.	.	.	32qqb-/JJJ	.	.	.	.	.	.	.	.	.	.	.	.	.	.	.	.	.	.	.	.	.	.	.	.	.	.	.	.
4FF/	.	.	8e-\	.	8f/	.	8cc\	.	.	.	8.cc\	.	.	.	.	.	.	.	.	.	.	.	.	.	.	.	.	.	.	.	.	.	.	.	.	.	.	.	.
.	.	.	8c\J	.	8e-X/J	.	8an\J	.	.	.	.	.	.	.	.	.	.	.	.	.	.	.	.	.	.	.	.	.	.	.	.	.	.	.	.	.	.	.	.
.	.	.	.	.	.	.	.	.	.	.	16an\	-li-	.	.	.	.	.	.	.	.	.	.	.	.	.	.	.	.	.	.	.	.	.	.	.	.	.	.	.
!	!	!	!	!	!	!	!	!	!	!	!LO:LB:g=original	!	!	!	!	!	!	!	!	!	!	!	!	!	!	!	!	!	!	!	!	!	!	!	!	!	!	!	!
!	!	!	!	!	!	!	!	!	!	!	!	!	!	!	!	!	!	!	!	!	!	!	!	!	!	!	!	!	!	!LO:PB:g=original	!	!	!	!	!	!	!	!	!
=21	=21	=21	=21	=21	=21	=21	=21	=21	=21	=21	=21	=21	=21	=21	=21	=21	=21	=21	=21	=21	=21	=21	=21	=21	=21	=21	=21	=21	=21	=21	=21	=21	=21	=21	=21	=21	=21	=21	=21
8BB-/	.	2.ryy	8B-/	.	8d/	.	16r	.	2.r	2.r	8b-\	-um	2.ryy	4r	.	4r	.	4r	.	2.ryy	2.ryy	4r	.	4r	.	4r	.	4r	.	4r	.	4r	.	4r	.	4r	.	2.ryy	2.ryy
!	!	!	!	!	!	!	!	!LO:DY:b	!	!	!	!	!	!	!	!	!	!	!	!	!	!	!	!	!	!	!	!	!	!	!	!	!	!	!	!	!	!	!
.	.	.	.	.	.	.	(<16b-/LL	p	.	.	.	.	.	.	.	.	.	.	.	.	.	.	.	.	.	.	.	.	.	.	.	.	.	.	.	.	.	.	.
8r	.	.	8r	.	8r	.	16f/	.	.	.	8r	.	.	.	.	.	.	.	.	.	.	.	.	.	.	.	.	.	.	.	.	.	.	.	.	.	.	.	.
.	.	.	.	.	.	.	16d/JJ)	.	.	.	.	.	.	.	.	.	.	.	.	.	.	.	.	.	.	.	.	.	.	.	.	.	.	.	.	.	.	.	.
!	!	!	!	!	!	!	!	!	!	!	!	!	!	!	!	!	!	!	!	!	!	!	!	!	!	!	!	!	!	!	!	!	!	!	!	!	!LO:HP:b	!	!
!	!LO:DY:b	!	!	!	!	!	!	!	!	!	!	!	!	!	!	!	!	!	!	!	!	!	!	!	!	!	!	!	!	!	!	!	!LO:DY:b	!	!LO:DY:b	!	!LO:DY:b:rj	!	!
!	!	!	!	!	!	!	!	!	!	!	!	!	!	!	!	!	!	!	!	!	!	!	!	!	!	!	!	!	!LO:DY:b	!	!LO:HP:b	!	!	!	!LO:HP:b	!	!	!	!
8BB-/	sf	.	8d\	.	8f 8B-/	.	16r	.	.	.	4.ff\	o	.	4BB-/	sf	4F/	sf	4d\	sf	.	.	4f\	sfz	4f\	sf	4BB-/	sf	4BB-/	sf	(>4dd\	>	(>4ff\	sfz	(4b-\	sf >	(>4dd\	fz >	.	.
!	!	!	!	!	!	!	!	!LO:DY:b	!	!	!	!	!	!	!	!	!	!	!	!	!	!	!	!	!	!	!	!	!	!	!	!	!	!	!	!	!	!	!
!	!	!	!	!	!	!	!	!	!	!	!	!	!	!	!	!	!	!	!	!	!	!	!	!	!LO:HP:b	!	!	!	!	!	!	!	!	!	!	!	!	!	!
.	.	.	.	.	.	.	(<16dd/LL	f	.	.	.	.	.	.	.	.	.	.	.	.	.	.	.	.	>	.	.	.	.	.	.	.	.	.	.	.	.	.	.
!	!	!	!	!	!	!	!	!	!	!	!	!	!	!	!	!	!	!	!	!	!	!	!	!	!	!	!	!	!	!	!	!	!LO:HP:b	!	!	!	!	!	!
8r	.	.	8r	.	8r	.	16b-/	.	.	.	.	.	.	.	.	.	.	.	.	.	.	.	.	.	.	.	.	.	.	.	.	.	>	.	.	.	.	.	.
.	.	.	.	.	.	.	16f/JJ)	.	.	.	.	.	.	.	.	.	.	.	.	.	.	.	.	.	.	.	.	.	.	.	.	.	.	.	.	.	.	.	.
!	!LO:DY:b	!	!	!	!	!	!	!	!	!	!	!	!	!	!	!	!	!	!	!	!	!	!	!	!	!	!	!	!	!	!	!	!	!	!	!	!	!	!
8BB-/	p	.	8d\	.	8f 8B-/	.	16r	.	.	.	.	.	.	4r	.	4r	.	4r	.	.	.	4r	.	4r	.	4r	.	4r	.	8dd\)	]	8ff\)	.	8b-\)	.	8dd\)	]	.	.
!	!	!	!	!	!	!	!	!LO:DY:b	!	!	!	!	!	!	!	!	!	!	!	!	!	!	!	!	!	!	!	!	!	!	!	!	!	!	!	!	!	!	!
.	.	.	.	.	.	.	(>16ff\LL	p	.	.	.	.	.	.	.	.	.	.	.	.	.	.	.	.	.	.	.	.	.	.	.	.	]	.	]	.	.	.	.
8r	.	.	8r	.	8r	.	16dd\	.	.	.	16dd\	Rex	.	.	.	.	.	.	.	.	.	.	.	.	.	.	.	.	.	8r	.	8r	.	8r	.	8r	.	.	.
.	.	.	.	.	.	.	16b-\JJ)	.	.	.	16b-\	in-	.	.	.	.	.	.	.	.	.	.	.	.	]	.	.	.	.	.	.	.	.	.	.	.	.	.	.
!	!	!	!	!	!	!	!	!	!	!	!	!	!	!LO:LB:g=original	!	!	!	!	!	!	!	!	!	!	!	!	!	!	!	!	!	!LO:LB:g=original	!	!LO:LB:g=original	!	!LO:LB:g=original	!	!	!
=22	=22	=22	=22	=22	=22	=22	=22	=22	=22	=22	=22	=22	=22	=22	=22	=22	=22	=22	=22	=22	=22	=22	=22	=22	=22	=22	=22	=22	=22	=22	=22	=22	=22	=22	=22	=22	=22	=22	=22
2.ryy	.	2.ryy	8d\	.	8f 8A-X/	.	16r	.	2.r	2.r	8b-\	-ten-	2.ryy	4r	.	4r	.	4r	.	2.ryy	2.ryy	4r	.	4r	.	4r	.	4r	.	4r	.	4r	.	4r	.	4r	.	2.ryy	2.ryy
.	.	.	.	.	.	.	(>16dd\LL	.	.	.	.	.	.	.	.	.	.	.	.	.	.	.	.	.	.	.	.	.	.	.	.	.	.	.	.	.	.	.	.
.	.	.	8r	.	8r	.	16a-X\	.	.	.	8a-X\	-de	.	.	.	.	.	.	.	.	.	.	.	.	.	.	.	.	.	.	.	.	.	.	.	.	.	.	.
.	.	.	.	.	.	.	16f\JJ)	.	.	.	.	.	.	.	.	.	.	.	.	.	.	.	.	.	.	.	.	.	.	.	.	.	.	.	.	.	.	.	.
!	!	!	!	!	!	!	!	!	!	!	!	!	!	!	!	!	!	!	!	!	!	!	!	!	!	!	!	!	!	!	!	!	!	!	!	!	!LO:HP:b	!	!
!	!	!	!	!	!	!	!	!	!	!	!	!	!	!	!	!	!	!	!	!	!	!	!	!	!	!	!	!	!LO:DY:b	!	!LO:HP:b	!	!LO:DY:b	!	!	!	!LO:DY:b:rj	!	!
.	.	.	8d\	.	8f 8A-/	.	16r	.	.	.	2aa-\	o	.	4C-X/	.	4A-\	.	4d\	sf	.	.	4f\	sfz	4f\	sf	4C-X/	.	4C-X/	sfz	(>4dd\	>	(>4aa-X\	sfz	(<4a-X/	.	(>4ff\	sf >	.	.
!	!	!	!	!	!	!	!	!	!	!	!	!	!	!	!	!	!	!	!	!	!	!	!	!	!LO:HP:b	!	!	!	!	!	!	!	!	!	!	!	!	!	!
.	.	.	.	.	.	.	(>16ff\LL	.	.	.	.	.	.	.	.	.	.	.	.	.	.	.	.	.	>	.	.	.	.	.	.	.	.	.	.	.	.	.	.
!	!	!	!	!	!	!	!	!	!	!	!	!	!	!	!	!	!	!	!	!	!	!	!	!	!	!	!	!	!	!	!	!	!LO:HP:b	!	!	!	!	!	!
.	.	.	8r	.	8r	.	16dd\	.	.	.	.	.	.	.	.	.	.	.	.	.	.	.	.	.	.	.	.	.	.	.	.	.	>	.	.	.	.	.	.
.	.	.	.	.	.	.	16a-\JJ)	.	.	.	.	.	.	.	.	.	.	.	.	.	.	.	.	.	.	.	.	.	.	.	.	.	.	.	.	.	.	.	.
.	.	.	8d\	.	8f 8A-/	.	16r	.	.	.	.	.	.	4r	.	4r	.	4r	.	.	.	4r	.	4r	.	4r	.	4r	.	8dd\)	]	8aa-\)	.	8a-/)	.	8ff\)	]	.	.
.	.	.	.	.	.	.	(>16aa-\LL	.	.	.	.	.	.	.	.	.	.	.	.	.	.	.	.	.	.	.	.	.	.	.	.	.	]	.	.	.	.	.	.
.	.	.	8r	.	8r	.	16ff\	.	.	.	.	.	.	.	.	.	.	.	.	.	.	.	.	.	.	.	.	.	.	8r	.	8r	.	8r	.	8r	.	.	.
.	.	.	.	.	.	.	16dd\JJ)	.	.	.	.	.	.	.	.	.	.	.	.	.	.	.	.	.	]	.	.	.	.	.	.	.	.	.	.	.	.	.	.
!	!	!	!	!	!	!	!	!	!	!	!	!	!	!	!	!LO:LB:g=original	!	!	!	!	!	!	!	!	!	!	!	!	!	!	!	!	!	!	!	!	!	!	!
=23	=23	=23	=23	=23	=23	=23	=23	=23	=23	=23	=23	=23	=23	=23	=23	=23	=23	=23	=23	=23	=23	=23	=23	=23	=23	=23	=23	=23	=23	=23	=23	=23	=23	=23	=23	=23	=23	=23	=23
2.ryy	.	2.ryy	2.r;>	.	2.r;>	.	2.r;>	.	2.r	2.r	4aa-;>\	.	2.ryy	2.r;	.	2.r;>	.	2.r;>	.	2.ryy	2.ryy	2.r;>	.	2.r;>	.	2.r;>	.	2.r;>	.	2.r;>	.	2.r;>	.	2.r;>	.	2.r;>	.	2.ryy	2.ryy
.	.	.	.	.	.	.	.	.	.	.	8.gg-X\	Rex	.	.	.	.	.	.	.	.	.	.	.	.	.	.	.	.	.	.	.	.	.	.	.	.	.	.	.
.	.	.	.	.	.	.	.	.	.	.	16ff\	in-	.	.	.	.	.	.	.	.	.	.	.	.	.	.	.	.	.	.	.	.	.	.	.	.	.	.	.
.	.	.	.	.	.	.	.	.	.	.	32qqee-/LLL	.	.	.	.	.	.	.	.	.	.	.	.	.	.	.	.	.	.	.	.	.	.	.	.	.	.	.	.
.	.	.	.	.	.	.	.	.	.	.	32qqff/	.	.	.	.	.	.	.	.	.	.	.	.	.	.	.	.	.	.	.	.	.	.	.	.	.	.	.	.
.	.	.	.	.	.	.	.	.	.	.	32qqgg-/JJJ	.	.	.	.	.	.	.	.	.	.	.	.	.	.	.	.	.	.	.	.	.	.	.	.	.	.	.	.
.	.	.	.	.	.	.	.	.	.	.	8.ff\	-ten-	.	.	.	.	.	.	.	.	.	.	.	.	.	.	.	.	.	.	.	.	.	.	.	.	.	.	.
.	.	.	.	.	.	.	.	.	.	.	16ee-\	-de	.	.	.	.	.	.	.	.	.	.	.	.	.	.	.	.	.	.	.	.	.	.	.	.	.	.	.
!	!	!	!	!	!	!	!LO:LB:g=original	!	!	!	!	!	!	!	!	!	!	!	!	!	!	!	!	!	!	!	!	!	!	!	!	!	!	!	!	!	!	!	!
=24	=24	=24	=24||	=24	=24	=24	=24	=24	=24	=24	=24	=24	=24	=24	=24	=24	=24	=24	=24	=24	=24	=24	=24	=24	=24	=24	=24	=24	=24	=24	=24	=24	=24	=24	=24	=24	=24	=24	=24
2.ryy	.	2.ryy	4f\	.	4d/	.	2.ryy	.	2.r	2.r	8.dd;>\	Hos-	2.ryy	2.r;	.	2.r;>	.	2.r;>	.	2.ryy	2.ryy	2.r;>	.	2.r;>	.	2.r;>	.	2.r;>	.	2.r;>	.	2.r;>	.	2.r;>	.	2.r;>	.	2.ryy	2.ryy
.	.	.	.	.	.	.	.	.	.	.	16ff\	-ti-	.	.	.	.	.	.	.	.	.	.	.	.	.	.	.	.	.	.	.	.	.	.	.	.	.	.	.
.	.	.	4r	.	4r	.	.	.	.	.	4a-\	-as,	.	.	.	.	.	.	.	.	.	.	.	.	.	.	.	.	.	.	.	.	.	.	.	.	.	.	.
.	.	.	4r;>	.	4r;>	.	.	.	.	.	4r;>	.	.	.	.	.	.	.	.	.	.	.	.	.	.	.	.	.	.	.	.	.	.	.	.	.	.	.	.
!	!	!	!LO:LB:g=original	!	!LO:LB:g=original	!	!	!	!	!	!LO:LB:g=original	!	!	!	!	!	!	!	!	!	!	!	!	!	!	!	!	!	!	!	!	!	!	!	!	!	!	!	!
=25	=25	=25	=25	=25	=25	=25	=25	=25	=25	=25	=25	=25	=25	=25	=25	=25	=25	=25	=25	=25	=25	=25	=25	=25	=25	=25	=25	=25	=25	=25	=25	=25	=25	=25	=25	=25	=25	=25	=25
!	!	!	!	!LO:DY:b	!	!LO:DY:b:rj	!	!	!	!	!	!	!	!LO:TX:a:t=2	!	!LO:TX:a:t=5.	!	!LO:TX:a:t=5.	!	!	!	!LO:TX:a:t=5.	!	!LO:TX:a:t=5.	!	!LO:TX:a:t=4	!	!LO:TX:a:t=2	!	!LO:TX:a:t=2	!	!LO:TX:a:t=2	!	!LO:TX:a:t=2	!	!	!	!	!
2.ryy	.	2.ryy	8r	p	2.B-/	pp	2.g/	.	2.r	2.r	2g\	de-	2.ryy	1.r	.	0.r	.	2.r	.	2.ryy	2.ryy	0.r	.	0.r	.	0.r	.	1.r	.	1.r	.	1.r	.	1.r	.	1.r	.	2.ryy	2.ryy
.	.	.	8E-/L	.	.	.	.	.	.	.	.	.	.	.	.	.	.	.	.	.	.	.	.	.	.	.	.	.	.	.	.	.	.	.	.	.	.	.	.
.	.	.	8G/	.	.	.	.	.	.	.	.	.	.	.	.	.	.	.	.	.	.	.	.	.	.	.	.	.	.	.	.	.	.	.	.	.	.	.	.
!	!	!	!	!	!	!	!	!	!	!	!	!	!	!	!	!	!	!	!	!	!	!	!	!	!	!	!	!	!	!	!	!	!	!	!	!LO:TX:a:t=2	!	!	!
.	.	.	8B-/	.	.	.	.	.	.	.	.	.	.	.	.	.	.	.	.	.	.	.	.	.	.	.	.	.	.	.	.	.	.	.	.	.	.	.	.
.	.	.	8e-/	.	.	.	.	.	.	.	8.e-/	-fun-	.	.	.	.	.	.	.	.	.	.	.	.	.	.	.	.	.	.	.	.	.	.	.	.	.	.	.
.	.	.	8B-/J	.	.	.	.	.	.	.	.	.	.	.	.	.	.	.	.	.	.	.	.	.	.	.	.	.	.	.	.	.	.	.	.	.	.	.	.
.	.	.	.	.	.	.	.	.	.	.	16b-\	-cto	.	.	.	.	.	.	.	.	.	.	.	.	.	.	.	.	.	.	.	.	.	.	.	.	.	.	.
=26	=26	=26	=26	=26	=26	=26	=26	=26	=26	=26	=26	=26	=26	=26	=26	=26	=26	=26	=26	=26	=26	=26	=26	=26	=26	=26	=26	=26	=26	=26	=26	=26	=26	=26	=26	=26	=26	=26	=26
2.ryy	.	2.ryy	8r	.	2.g/	.	2.b-\	.	2.r	2.r	4b-\	do-	2.ryy	.	.	.	.	0.r	.	2.ryy	2.ryy	.	.	.	.	.	.	.	.	.	.	.	.	.	.	.	.	2.ryy	2.ryy
.	.	.	8G/L	.	.	.	.	.	.	.	.	.	.	.	.	.	.	.	.	.	.	.	.	.	.	.	.	.	.	.	.	.	.	.	.	.	.	.	.
.	.	.	8B-/	.	.	.	.	.	.	.	4.g\	.	.	.	.	.	.	.	.	.	.	.	.	.	.	.	.	.	.	.	.	.	.	.	.	.	.	.	.
.	.	.	8e-/	.	.	.	.	.	.	.	.	.	.	.	.	.	.	.	.	.	.	.	.	.	.	.	.	.	.	.	.	.	.	.	.	.	.	.	.
.	.	.	8g/	.	.	.	.	.	.	.	.	.	.	.	.	.	.	.	.	.	.	.	.	.	.	.	.	.	.	.	.	.	.	.	.	.	.	.	.
.	.	.	8e-/J	.	.	.	.	.	.	.	8ee-\	-na	.	.	.	.	.	.	.	.	.	.	.	.	.	.	.	.	.	.	.	.	.	.	.	.	.	.	.
=27	=27	=27	=27	=27	=27	=27	=27	=27	=27	=27	=27	=27	=27	=27	=27	=27	=27	=27	=27	=27	=27	=27	=27	=27	=27	=27	=27	=27	=27	=27	=27	=27	=27	=27	=27	=27	=27	=27	=27
!	!	!	!	!	!	!	!	!	!	!	!LO:SIC:l:s=prae	!	!	!LO:TX:a:t=3.	!	!	!	!	!	!	!	!	!	!	!	!	!	!	!	!	!	!LO:TX:a:i:t=Solo	!	!	!	!	!	!	!
.	.	.	.	.	.	.	.	.	.	.	8qdd/	.	.	.	.	.	.	.	.	.	.	.	.	.	.	.	.	.	.	.	.	.	.	.	.	.	.	.	.
2.ryy	.	2.ryy	8c\L	.	8a-/	.	8cc\	.	2.r	2.r	8.cc\	pre-	2.ryy	1.r	.	.	.	.	.	2.ryy	2.ryy	.	.	.	.	.	.	2.ryy	.	2.ryy	.	4r	.	4r	.	4r	.	2.ryy	2.ryy
.	.	.	8e-\J	.	8r	.	8r	.	.	.	.	.	.	.	.	.	.	.	.	.	.	.	.	.	.	.	.	.	.	.	.	.	.	.	.	.	.	.	.
.	.	.	.	.	.	.	.	.	.	.	16b-\	-mi-	.	.	.	.	.	.	.	.	.	.	.	.	.	.	.	.	.	.	.	.	.	.	.	.	.	.	.
.	.	.	8E-/	.	8g/	.	8b-\	.	.	.	4b-\	-um	.	.	.	.	.	.	.	.	.	.	.	.	.	.	.	.	.	.	.	8r	.	8r	.	8r	.	.	.
.	.	.	8r	.	8r	.	8r	.	.	.	.	.	.	.	.	.	.	.	.	.	.	.	.	.	.	.	.	.	.	.	.	8gg\L	.	4e-/	.	(>4ee-\	.	.	.
!	!	!	!	!	!	!	!	!	!	!	!	!	!	!	!	!	!	!	!	!	!	!	!	!	!	!	!	!	!	!	!	!	!	!	!LO:DY:b:t=po	!	!LO:DY:b:t=po	!	!
.	.	.	4r	.	8r	.	8r	.	.	.	8r	.	.	.	.	.	.	.	.	.	.	.	.	.	.	.	.	.	.	.	.	8aa-\	.	.	p	.	p	.	.
.	.	.	.	.	8g/	.	8b-\	.	.	.	8b-\	de-	.	.	.	.	.	.	.	.	.	.	.	.	.	.	.	.	.	.	.	8bb-\J	.	8e-/	.	8ee-\)	.	.	.
=28	=28	=28	=28	=28	=28	=28	=28	=28	=28	=28	=28	=28	=28	=28	=28	=28	=28	=28	=28	=28	=28	=28	=28	=28	=28	=28	=28	=28	=28	=28	=28	=28	=28	=28	=28	=28	=28	=28	=28
2.ryy	.	2.ryy	4r	.	8a-/L	.	8cc\L	.	2.r	2.r	8cc\	-fun-	2.ryy	.	.	.	.	.	.	2.ryy	2.ryy	.	.	.	.	.	.	4r	.	2.ryy	.	2.r	.	2.r	.	2.r	.	2.ryy	2.ryy
.	.	.	.	.	8b-/	.	8dd-X\	.	.	.	8dd-X\	-cto	.	.	.	.	.	.	.	.	.	.	.	.	.	.	.	.	.	.	.	.	.	.	.	.	.	.	.
.	.	.	4r	.	8cc/	.	8ee-\	.	.	.	8ee-\L	do-	.	.	.	.	.	.	.	.	.	.	.	.	.	.	.	8r	.	.	.	.	.	.	.	.	.	.	.
!	!	!	!	!	!	!	!	!	!	!	!	!	!	!	!	!	!	!	!	!	!	!	!	!	!	!	!	!	!	!	!	!LO:TX:a:t=1	!	!LO:TX:a:t=1	!	!LO:TX:a:t=1	!	!	!
.	.	.	.	.	.	.	.	.	.	.	8qgg/	.	.	.	.	.	.	.	.	.	.	.	.	.	.	.	.	.	.	.	.	.	.	.	.	.	.	.	.
!	!	!	!	!	!	!	!	!	!	!	!	!	!	!	!	!	!	!	!	!	!	!	!	!	!	!	!	!	!LO:DY:b:t=po	!	!	!	!	!	!	!	!	!	!
.	.	.	.	.	8dd-X/	.	8ff\	.	.	.	8ff\J	.	.	.	.	.	.	.	.	.	.	.	.	.	.	.	.	8d-X\L	p	.	.	.	.	.	.	.	.	.	.
!	!	!	!	!	!	!	!	!	!	!	!	!	!	!	!	!	!	!	!	!	!	!	!	!	!	!	!	!LO:TX:b:i:t=Solo	!	!	!	!	!	!	!	!	!	!	!
.	.	.	4G/	.	8cc/	.	8ee-\	.	.	.	8ee-\L	-na	.	.	.	.	.	.	.	.	.	.	.	.	.	.	.	(>8c\	.	.	.	.	.	.	.	.	.	.	.
.	.	.	.	.	8b-/J	.	8dd-\J	.	.	.	8dd-X\J	.	.	.	.	.	.	.	.	.	.	.	.	.	.	.	.	8G\J)	.	.	.	.	.	.	.	.	.	.	.
!	!	!	!	!	!	!	!	!	!	!	!LO:LB:g=original	!	!	!	!	!	!	!	!	!	!	!	!	!	!	!LO:LB:g=original	!	!	!	!	!	!	!	!	!	!	!	!	!
=29	=29	=29	=29	=29	=29	=29	=29	=29	=29	=29	=29	=29	=29	=29	=29	=29	=29	=29	=29	=29	=29	=29	=29	=29	=29	=29	=29	=29	=29	=29	=29	=29	=29	=29	=29	=29	=29	=29	=29
*^	*	*	*	*	*	*	*	*	*	*	*	*	*	*	*	*	*	*	*	*	*	*	*	*	*	*	*	*	*	*	*	*	*	*	*	*	*	*	*
!	!	!	!	!	!	!	!	!	!	!	!	!LO:SIC:l:s=prae	!	!	!	!	!	!	!	!	!	!	!	!	!	!	!	!	!	!	!	!	!	!	!	!	!	!	!	!
16En/LL	2.r	.	2.ryy	16G/LL	.	4b-\	.	4dd-X\	.	2.r	2.r	8.dd-X\	pre-	2.ryy	2.r	.	2.r	.	.	.	2.ryy	2.ryy	2.r	.	2.r	.	4r	.	4r	.	2.ryy	.	4r	.	4r	.	4r	.	2.ryy	2.ryy
16G/	.	.	.	16B-/	.	.	.	.	.	.	.	.	.	.	.	.	.	.	.	.	.	.	.	.	.	.	.	.	.	.	.	.	.	.	.	.	.	.	.	.
16B-/	.	.	.	16d-X/	.	.	.	.	.	.	.	.	.	.	.	.	.	.	.	.	.	.	.	.	.	.	.	.	.	.	.	.	.	.	.	.	.	.	.	.
16G/JJ	.	.	.	16B-/JJ	.	.	.	.	.	.	.	16cc\	-mi-	.	.	.	.	.	.	.	.	.	.	.	.	.	.	.	.	.	.	.	.	.	.	.	.	.	.	.
8E/	.	.	.	8G/	.	4a-\	.	8cc\	.	.	.	4cc\	-um	.	.	.	.	.	.	.	.	.	.	.	.	.	8r	.	8r	.	.	.	8r	.	8r	.	8r	.	.	.
!	!	!	!	!	!	!	!	!	!	!	!	!	!	!	!	!	!	!	!	!	!	!	!	!	!	!	!	!	!	!	!	!	!	!LO:DY:b:t=po	!	!LO:DY:b:t=po	!	!LO:DY:b:t=po	!	!
!	!	!	!	!	!	!	!	!	!	!	!	!	!	!	!	!	!	!	!	!	!	!	!	!	!	!	!	!	!	!	!	!	!	!LO:HP:b	!	!LO:HP:b	!	!LO:HP:b	!	!
8r	.	.	.	8r	.	.	.	8r	.	.	.	.	.	.	.	.	.	.	.	.	.	.	.	.	.	.	(>8c\L	.	(>8c\L	.	.	.	(>8cc\L	p <	8cc\L	p	8cc\L	p<	.	.
4r	.	.	.	4r	.	4r	.	4r	.	.	.	4r	.	.	.	.	.	.	.	.	.	.	.	.	.	.	8A-\	.	8A-\	.	.	.	8ff\	.	8cc\	<	8cc\	.	.	.
.	.	.	.	.	.	.	.	.	.	.	.	.	.	.	.	.	.	.	.	.	.	.	.	.	.	.	8c\J)	.	8c\J)	.	.	.	8gg\J)	[[	8cc\J	[[	8cc\J	[[	.	.
*v	*v	*	*	*	*	*	*	*	*	*	*	*	*	*	*	*	*	*	*	*	*	*	*	*	*	*	*	*	*	*	*	*	*	*	*	*	*	*	*	*
!	!	!	!	!	!	!	!	!	!	!	!	!	!	!	!	!	!	!	!	!	!	!	!LO:PB:g=original	!	!LO:PB:g=original	!	!	!	!	!	!	!	!	!	!	!	!	!	!
=30	=30	=30	=30	=30	=30	=30	=30	=30	=30	=30	=30	=30	=30	=30	=30	=30	=30	=30	=30	=30	=30	=30	=30	=30	=30	=30	=30	=30	=30	=30	=30	=30	=30	=30	=30	=30	=30	=30	=30
!	!LO:DY:b	!	!	!	!	!	!	!	!	!	!	!	!	!	!	!	!	!	!	!	!	!	!	!	!	!	!	!	!	!	!	!	!LO:DY:b	!	!	!	!LO:DY:b:t=fo	!	!
8F\	sfz	2.ryy	16r	.	4r	.	4r	.	2.r	2.r	4ff\	scan-	2.ryy	8F\	fz	8c\	sf	8a-\	sf	2.ryy	2.ryy	(>2.f\	sf	(>2.f\	sf	8f\	.	8f\	.	2.ryy	.	8aa-\	sfz	8cc\	sf	8cc\	f	2.ryy	2.ryy
!	!	!	!LO:SIC:s=16A-	!	!	!	!	!	!	!	!	!	!	!	!	!	!	!	!	!	!	!	!	!	!	!	!	!	!	!	!	!	!	!	!	!	!	!	!
.	.	.	16A\LL	.	.	.	.	.	.	.	.	.	.	.	.	.	.	.	.	.	.	.	.	.	.	.	.	.	.	.	.	.	.	.	.	.	.	.	.
8r	.	.	16c\	.	.	.	.	.	.	.	.	.	.	8r	.	8r	.	8r	.	.	.	.	.	.	.	8r	.	8r	.	.	.	8r	.	8r	.	8r	.	.	.
!	!	!	!LO:SIC:s=16A-	!	!	!	!	!	!	!	!	!	!	!	!	!	!	!	!	!	!	!	!	!	!	!	!	!	!	!	!	!	!	!	!	!	!	!	!
.	.	.	16A\JJ	.	.	.	.	.	.	.	.	.	.	.	.	.	.	.	.	.	.	.	.	.	.	.	.	.	.	.	.	.	.	.	.	.	.	.	.
!	!LO:DY:b	!	!	!	!	!	!	!	!	!	!	!	!	!	!	!	!	!	!	!	!	!	!	!	!	!	!	!	!	!	!	!	!	!	!	!	!	!	!
8F\	p	.	8f\	.	16r	.	4r	.	.	.	8ff\	-dens	.	4r	.	4r	.	4r	.	.	.	.	.	.	.	4r	.	4r	.	.	.	4r	.	4r	.	4r	.	.	.
.	.	.	.	.	16c/LL	.	.	.	.	.	.	.	.	.	.	.	.	.	.	.	.	.	.	.	.	.	.	.	.	.	.	.	.	.	.	.	.	.	.
8r	.	.	8r	.	16f/	.	.	.	.	.	8cc\	ar-	.	.	.	.	.	.	.	.	.	.	.	.	.	.	.	.	.	.	.	.	.	.	.	.	.	.	.
.	.	.	.	.	16c/JJ	.	.	.	.	.	.	.	.	.	.	.	.	.	.	.	.	.	.	.	.	.	.	.	.	.	.	.	.	.	.	.	.	.	.
8F\	.	.	4r	.	8a-/	.	16r	.	.	.	8a-X\	-ces	.	4r	.	4r	.	4r	.	.	.	.	.	.	.	4r	.	4r	.	.	.	4r	.	4r	.	4r	.	.	.
.	.	.	.	.	.	.	16f/LL	.	.	.	.	.	.	.	.	.	.	.	.	.	.	.	.	.	.	.	.	.	.	.	.	.	.	.	.	.	.	.	.
8r	.	.	.	.	8r	.	16a-/	.	.	.	8f/	in	.	.	.	.	.	.	.	.	.	.	.	.	.	.	.	.	.	.	.	.	.	.	.	.	.	.	.
.	.	.	.	.	.	.	16f/JJ	.	.	.	.	.	.	.	.	.	.	.	.	.	.	.	.	.	.	.	.	.	.	.	.	.	.	.	.	.	.	.	.
!	!	!	!LO:LB:g=original	!	!LO:LB:g=original	!	!	!	!	!	!	!	!	!	!	!	!	!	!	!	!	!	!	!	!	!	!	!	!	!	!	!	!	!	!	!	!	!	!
!	!	!	!	!	!	!	!	!	!	!	!	!	!	!	!	!	!	!LO:LB:g=original	!	!	!	!	!	!	!	!	!	!LO:LB:g=original	!	!	!	!LO:PB:g=original	!	!LO:LB:g=original	!	!LO:LB:g=original	!	!	!
=31	=31	=31	=31	=31	=31	=31	=31	=31	=31	=31	=31	=31	=31	=31	=31	=31	=31	=31	=31	=31	=31	=31	=31	=31	=31	=31	=31	=31	=31	=31	=31	=31	=31	=31	=31	=31	=31	=31	=31
!	!	!	!	!	!	!	!	!	!	!	!	!	!	!	!	!	!	!	!	!	!	!	!	!	!	!	!	!	!	!	!	!	!	!	!	!	!	!	!
!	!	!	!	!	!	!	!	!	!	!	!	!	!	!	!	!	!	!	!	!	!	!	!LO:DY:b:t=po	!	!LO:DY:b:t=po	!	!	!	!	!	!	!	!	!	!	!	!	!	!
8G-X\	.	2.ryy	16r	.	2.r	.	8cc\	.	2.r	2.r	8.e-X/	pa-	2.ryy	2.r	.	2.r	.	2.r	.	2.ryy	2.ryy	8e-\)	p	8e-\)	p	4r	.	4r	.	2.ryy	.	4r	.	4r	.	4r	.	2.ryy	2.ryy
.	.	.	16An/LL	.	.	.	.	.	.	.	.	.	.	.	.	.	.	.	.	.	.	.	.	.	.	.	.	.	.	.	.	.	.	.	.	.	.	.	.
8r	.	.	16c/	.	.	.	8r	.	.	.	.	.	.	.	.	.	.	.	.	.	.	8r	.	8r	.	.	.	.	.	.	.	.	.	.	.	.	.	.	.
.	.	.	16A/JJ	.	.	.	.	.	.	.	32g-X/LLL	-tri-	.	.	.	.	.	.	.	.	.	.	.	.	.	.	.	.	.	.	.	.	.	.	.	.	.	.	.
!	!	!	!	!	!LO:TX:a:t=1.	!	!	!	!	!	!	!	!	!LO:TX:a:t=1	!	!LO:TX:a:t=1	!	!LO:TX:a:t=1	!	!	!	!	!	!	!	!	!	!	!	!	!	!	!	!	!	!	!	!	!
.	.	.	.	.	.	.	.	.	.	.	32f/JJJ	.	.	.	.	.	.	.	.	.	.	.	.	.	.	.	.	.	.	.	.	.	.	.	.	.	.	.	.
4r	.	.	8e-\	.	.	.	4r	.	.	.	4e-/	-as,	.	.	.	.	.	.	.	.	.	4r	.	4r	.	8r	.	8r	.	.	.	8r	.	8r	.	8r	.	.	.
!	!	!	!	!	!	!	!	!	!	!	!	!	!	!	!	!	!	!	!	!	!	!	!	!	!	!	!	!	!	!	!	!	!LO:DY:b:t=po	!	!LO:DY:b	!	!LO:DY:b:t=po	!	!
!	!	!	!	!	!	!	!	!	!	!	!	!	!	!	!	!	!	!	!	!	!	!	!	!	!	!	!	!	!LO:HP:b	!	!	!	!	!	!	!	!	!	!
!	!	!	!	!	!	!	!	!	!	!	!	!	!	!	!	!	!	!	!	!	!	!	!	!	!	!	!LO:DY:b	!	!LO:DY:b:t=po	!	!	!	!LO:HP:b	!	!	!	!	!	!
!	!	!	!	!	!	!	!	!	!	!	!	!	!	!	!	!	!	!	!	!	!	!	!	!	!	!	!LO:HP:b	!	!	!	!	!	!	!	!	!	!	!	!
.	.	.	8r	.	.	.	.	.	.	.	.	.	.	.	.	.	.	.	.	.	.	.	.	.	.	8e-\L	p <	(>8e-\L	p <	.	.	(>8cc\L	p <	(<8g-X/L	p	8g-X/L	p	.	.
!	!	!	!	!	!	!	!	!	!	!	!	!	!	!	!	!	!	!	!	!	!	!	!	!	!	!	!	!	!	!	!	!	!	!	!LO:HP:b	!	!LO:HP:b	!	!
4r	.	.	4r	.	.	.	4r	.	.	.	4r	.	.	.	.	.	.	.	.	.	.	4r	.	4r	.	(>8c\	.	8c\	.	.	.	8ee-\	.	8e-/	<	8e-/	<	.	.
!	!LO:HP:b	!	!	!	!	!	!	!	!	!	!	!	!	!	!	!	!	!	!	!	!	!	!	!	!	!	!	!	!	!	!	!	!	!	!	!	!	!	!
.	<	.	.	.	.	.	.	.	.	.	.	.	.	.	.	.	.	.	.	.	.	.	.	.	.	8B-\J)	[[	8B-\J)	[[	.	.	8ff\J	[[	8dd-X/J)	[[	8dd-X/J	.	.	.
!LO:LB:g=original	!	!	!	!	!	!	!LO:LB:g=original	!	!	!	!	!	!	!	!	!	!	!	!	!	!	!	!	!	!	!	!	!	!	!	!	!	!	!	!	!	!	!	!
=32	=32	=32	=32	=32	=32	=32	=32	=32	=32	=32	=32	=32	=32	=32	=32	=32	=32	=32	=32	=32	=32	=32	=32	=32	=32	=32	=32	=32	=32	=32	=32	=32	=32	=32	=32	=32	=32	=32	=32
!	!LO:HP:b	!	!	!	!	!	!	!	!	!	!	!	!	!	!	!	!	!	!	!	!	!	!	!	!	!	!	!	!	!	!	!	!LO:DY:b	!	!	!	!	!	!
8AA-X/	[	2.ryy	16r	.	4r	.	4r	.	2.r	2.r	4gg-X\	scan-	2.ryy	8AA-X/	.	8G-X/	.	8e-\	.	2.ryy	2.ryy	(>2.e-\	sfz	(>2.e-\	sf	8A-X\	.	8A-X\	.	2.ryy	.	8gg-X\)	sfz	8cc\	.	8cc\	[	2.ryy	2.ryy
.	.	.	16A-X/LL	.	.	.	.	.	.	.	.	.	.	.	.	.	.	.	.	.	.	.	.	.	.	.	.	.	.	.	.	.	.	.	.	.	.	.	.
8r	.	.	16c/	.	.	.	.	.	.	.	.	.	.	8r	.	8r	.	8r	.	.	.	.	.	.	.	8r	.	8r	.	.	.	8r	.	8r	.	8r	.	.	.
.	.	.	16A-/JJ	.	.	.	.	.	.	.	.	.	.	.	.	.	.	.	.	.	.	.	.	.	.	.	.	.	.	.	.	.	.	.	.	.	.	.	.
!	!LO:DY:b	!	!	!	!	!	!	!	!	!	!	!	!	!	!	!	!	!	!	!	!	!	!	!	!	!	!	!	!	!	!	!	!	!	!	!	!	!	!
8AA-/	p	.	8e-\	.	16r	.	4r	.	.	.	8gg-\	-dens	.	4r	.	4r	.	4r	.	.	.	.	.	.	.	4r	.	4r	.	.	.	4r	.	4r	.	4r	.	.	.
!	!	!	!	!	!	!	!	!	!	!	!	!	!	!	!	!	!	!	!	!	!	!	!	!	!LO:HP:b	!	!	!	!	!	!	!	!	!	!	!	!	!	!
.	.	.	.	.	16c/LL	.	.	.	.	.	.	.	.	.	.	.	.	.	.	.	.	.	.	.	>	.	.	.	.	.	.	.	.	.	.	.	.	.	.
8r	.	.	8r	.	16e-/	.	.	.	.	.	8ee-\	ar-	.	.	.	.	.	.	.	.	.	.	.	.	.	.	.	.	.	.	.	.	.	.	.	.	.	.	.
.	.	.	.	.	16c/JJ	.	.	.	.	.	.	.	.	.	.	.	.	.	.	.	.	.	.	.	.	.	.	.	.	.	.	.	.	.	.	.	.	.	.
8AA-/	.	.	4r	.	8g-X/	.	16r	.	.	.	8cc\	-ces	.	4r	.	4r	.	4r	.	.	.	.	.	.	.	4r	.	4r	.	.	.	4r	.	4r	.	4r	.	.	.
.	.	.	.	.	.	.	16e-/LL	.	.	.	.	.	.	.	.	.	.	.	.	.	.	.	.	.	.	.	.	.	.	.	.	.	.	.	.	.	.	.	.
8r	.	.	.	.	8r	.	16g-X/	.	.	.	8g-X\	in	.	.	.	.	.	.	.	.	.	.	.	.	.	.	.	.	.	.	.	.	.	.	.	.	.	.	.
.	.	.	.	.	.	.	16e-/JJ	.	.	.	.	.	.	.	.	.	.	.	.	.	.	.	.	.	.	.	.	.	.	.	.	.	.	.	.	.	.	.	.
!	!	!	!	!	!	!	!	!	!	!	!LO:LB:g=original	!	!	!	!	!	!	!	!	!	!	!	!	!	!	!	!	!	!	!	!	!	!	!	!	!	!	!	!
=33	=33	=33	=33	=33	=33	=33	=33	=33	=33	=33	=33	=33	=33	=33	=33	=33	=33	=33	=33	=33	=33	=33	=33	=33	=33	=33	=33	=33	=33	=33	=33	=33	=33	=33	=33	=33	=33	=33	=33
!	!	!	!	!	!	!	!	!	!	!	!	!	!	!LO:TX:a:t=5.	!	!LO:TX:a:t=5.	!	!LO:TX:a:t=10.	!	!	!	!	!	!	!	!LO:TX:a:t=9.	!	!LO:TX:a:t=5.	!	!	!	!LO:TX:a:t=5.	!	!LO:TX:a:t=6.	!	!LO:TX:a:t=6.	!	!	!
!	!	!	!	!	!	!	!	!	!	!	!	!	!	!	!	!	!	!	!	!	!	!	!LO:DY:b:t=po	!	!	!	!	!	!	!	!	!	!	!	!	!	!	!	!
8AAn/	.	2.ryy	16r	.	4r	.	8cc\	.	2.r	2.r	8.f/	pa-	2.ryy	0.r	.	0.r	.	0.r	.	2.ryy	2.ryy	8f\)	p	8f\)	]	0.r	.	0.r	.	4r	.	0.r	.	0.r	.	0.r	.	2.ryy	2.ryy
.	.	.	16c\LL	.	.	.	.	.	.	.	.	.	.	.	.	.	.	.	.	.	.	.	.	.	.	.	.	.	.	.	.	.	.	.	.	.	.	.	.
8r	.	.	16e-\	.	.	.	8r	.	.	.	.	.	.	.	.	.	.	.	.	.	.	8r	.	8r	.	.	.	.	.	.	.	.	.	.	.	.	.	.	.
.	.	.	16c\JJ	.	.	.	.	.	.	.	32an/LLL	-tri-	.	.	.	.	.	.	.	.	.	.	.	.	.	.	.	.	.	.	.	.	.	.	.	.	.	.	.
.	.	.	.	.	.	.	.	.	.	.	32g/JJJ	.	.	.	.	.	.	.	.	.	.	.	.	.	.	.	.	.	.	.	.	.	.	.	.	.	.	.	.
4r	.	.	8f\L	.	8r	.	8r	.	.	.	4f/	-as	.	.	.	.	.	.	.	.	.	4r	.	4r	.	.	.	.	.	8r	.	.	.	.	.	.	.	.	.
.	.	.	8An\	.	8cc\L	.	8ee-\L	.	.	.	.	.	.	.	.	.	.	.	.	.	.	.	.	.	.	.	.	.	.	(>8b-\L	.	.	.	.	.	.	.	.	.
(>4F\	.	.	8A\	.	8cc\	.	8ee-\	.	.	.	8r	.	.	.	.	.	.	.	.	.	.	4r	.	4r	.	.	.	.	.	8cc\	.	.	.	.	.	.	.	.	.
!	!	!	!	!	!	!	!	!	!	!	!LO:SIC:l:s=ae	!	!	!	!	!	!	!	!	!	!	!	!	!	!	!	!	!	!	!	!	!	!	!	!	!	!	!	!
.	.	.	8A\J	.	8cc\J	.	8ee-\J	.	.	.	8ee-\	e-	.	.	.	.	.	.	.	.	.	.	.	.	.	.	.	.	.	8dd-X\J)	.	.	.	.	.	.	.	.	.
=34	=34	=34	=34	=34	=34	=34	=34	=34	=34	=34	=34	=34	=34	=34	=34	=34	=34	=34	=34	=34	=34	=34	=34	=34	=34	=34	=34	=34	=34	=34	=34	=34	=34	=34	=34	=34	=34	=34	=34
!	!	!	!	!	!	!	!	!	!	!	!	!	!	!	!	!	!	!	!	!	!	!LO:TX:a:t=5.	!	!LO:TX:a:t=5.	!	!	!	!	!	!LO:TX:a:t=5.	!	!	!	!	!	!	!	!	!
4BB-/)	.	2.ryy	4A-X/	.	4f/	.	8r	.	2.r	2.r	4ee-\	-ter-	2.ryy	.	.	.	.	.	.	2.ryy	2.ryy	0.r	.	0.r	.	.	.	.	.	0.r	.	.	.	.	.	.	.	2.ryy	2.ryy
.	.	.	.	.	.	.	8ee-\L	.	.	.	.	.	.	.	.	.	.	.	.	.	.	.	.	.	.	.	.	.	.	.	.	.	.	.	.	.	.	.	.
4r	.	.	8r	.	8r	.	8dd\	.	.	.	4ddn\	-num	.	.	.	.	.	.	.	.	.	.	.	.	.	.	.	.	.	.	.	.	.	.	.	.	.	.	.
.	.	.	8A-/L	.	8f/L	.	8ff\	.	.	.	.	.	.	.	.	.	.	.	.	.	.	.	.	.	.	.	.	.	.	.	.	.	.	.	.	.	.	.	.
(>4E-\	.	.	8G/	.	8b-/	.	8ee-\	.	.	.	8r	.	.	.	.	.	.	.	.	.	.	.	.	.	.	.	.	.	.	.	.	.	.	.	.	.	.	.	.
!	!	!	!	!	!	!	!	!	!	!	!LO:SIC:l:s=ae	!	!	!	!	!	!	!	!	!	!	!	!	!	!	!	!	!	!	!	!	!	!	!	!	!	!	!	!
.	.	.	8B-/J	.	8g/J	.	8dd-X\J	.	.	.	8dd-X\	e-	.	.	.	.	.	.	.	.	.	.	.	.	.	.	.	.	.	.	.	.	.	.	.	.	.	.	.
=35	=35	=35	=35	=35	=35	=35	=35	=35	=35	=35	=35	=35	=35	=35	=35	=35	=35	=35	=35	=35	=35	=35	=35	=35	=35	=35	=35	=35	=35	=35	=35	=35	=35	=35	=35	=35	=35	=35	=35
*^	*	*	*	*	*	*	*	*	*	*	*	*	*	*	*	*	*	*	*	*	*	*	*	*	*	*	*	*	*	*	*	*	*	*	*	*	*	*	*
!LO:N:vis=8r	!	!	!	!	!	!	!	!	!	!	!	!	!	!	!	!	!	!	!	!	!	!	!	!	!	!	!	!	!	!	!	!	!	!	!	!	!	!	!	!
16r	4rGG	.	2.ryy	8A/	.	8r	.	8cc\	.	2.r	2.r	4.cc\	-ter-	2.ryy	.	.	.	.	.	.	2.ryy	2.ryy	.	.	.	.	.	.	.	.	.	.	.	.	.	.	.	.	2.ryy	2.ryy
16B-/LL)	.	.	.	.	.	.	.	.	.	.	.	.	.	.	.	.	.	.	.	.	.	.	.	.	.	.	.	.	.	.	.	.	.	.	.	.	.	.	.	.
16A-/	.	.	.	8r	.	8e-/	.	8r	.	.	.	.	.	.	.	.	.	.	.	.	.	.	.	.	.	.	.	.	.	.	.	.	.	.	.	.	.	.	.	.
16G/JJ	.	.	.	.	.	.	.	.	.	.	.	.	.	.	.	.	.	.	.	.	.	.	.	.	.	.	.	.	.	.	.	.	.	.	.	.	.	.	.	.
16F/LL	4r	.	.	4r	.	8r	.	8cc\	.	.	.	.	.	.	.	.	.	.	.	.	.	.	.	.	.	.	.	.	.	.	.	.	.	.	.	.	.	.	.	.
16E-/	.	.	.	.	.	.	.	.	.	.	.	.	.	.	.	.	.	.	.	.	.	.	.	.	.	.	.	.	.	.	.	.	.	.	.	.	.	.	.	.
16D/	.	.	.	.	.	8e-/	.	8r	.	.	.	16aa-\LL	.	.	.	.	.	.	.	.	.	.	.	.	.	.	.	.	.	.	.	.	.	.	.	.	.	.	.	.
16C/JJ	.	.	.	.	.	.	.	.	.	.	.	16gg\JJ	.	.	.	.	.	.	.	.	.	.	.	.	.	.	.	.	.	.	.	.	.	.	.	.	.	.	.	.
!	!	!LO:DY:b:rj	!	!	!	!	!	!	!	!	!	!	!	!	!	!	!	!	!	!	!	!	!	!	!	!	!	!	!	!	!	!	!	!	!	!	!	!	!	!
4BB-/	4BB-\	p	.	4r	.	8r	.	8cc\	.	.	.	16ff\LL	.	.	.	.	.	.	.	.	.	.	.	.	.	.	.	.	.	.	.	.	.	.	.	.	.	.	.	.
.	.	.	.	.	.	.	.	.	.	.	.	16ee-\JJ	.	.	.	.	.	.	.	.	.	.	.	.	.	.	.	.	.	.	.	.	.	.	.	.	.	.	.	.
.	.	.	.	.	.	8a-/	.	8r	.	.	.	16ddn\LL	-num	.	.	.	.	.	.	.	.	.	.	.	.	.	.	.	.	.	.	.	.	.	.	.	.	.	.	.
.	.	.	.	.	.	.	.	.	.	.	.	16cc\JJ	.	.	.	.	.	.	.	.	.	.	.	.	.	.	.	.	.	.	.	.	.	.	.	.	.	.	.	.
*v	*v	*	*	*	*	*	*	*	*	*	*	*	*	*	*	*	*	*	*	*	*	*	*	*	*	*	*	*	*	*	*	*	*	*	*	*	*	*	*	*
=36	=36	=36	=36	=36	=36	=36	=36	=36	=36	=36	=36	=36	=36	=36	=36	=36	=36	=36	=36	=36	=36	=36	=36	=36	=36	=36	=36	=36	=36	=36	=36	=36	=36	=36	=36	=36	=36	=36	=36
2.ryy	.	2.ryy	4r	.	4g/	.	4b-\	.	2.r	2.r	(>4b-\	spec-	2.ryy	.	.	.	.	.	.	2.ryy	2.ryy	.	.	.	.	.	.	.	.	.	.	.	.	.	.	.	.	2.ryy	2.ryy
.	.	.	4d\	.	4f/	.	4a-\	.	.	.	4a-\)	.	.	.	.	.	.	.	.	.	.	.	.	.	.	.	.	.	.	.	.	.	.	.	.	.	.	.	.
.	.	.	4e-\	.	4e-/	.	4g/	.	.	.	4g\	-tet	.	.	.	.	.	.	.	.	.	.	.	.	.	.	.	.	.	.	.	.	.	.	.	.	.	.	.
!	!	!	!LO:LB:g=original	!	!LO:LB:g=original	!	!LO:LB:g=original	!	!	!	!	!	!	!	!	!	!	!	!	!	!	!	!	!	!	!	!	!	!	!	!	!	!	!	!	!	!	!	!
=37	=37	=37	=37	=37	=37	=37	=37	=37	=37	=37	=37	=37	=37	=37	=37	=37	=37	=37	=37	=37	=37	=37	=37	=37	=37	=37	=37	=37	=37	=37	=37	=37	=37	=37	=37	=37	=37	=37	=37
!	!	!	!	!	!	!	!	!	!	!	!LO:SIC:l:s=so	!	!	!	!	!	!	!	!	!	!	!	!	!	!	!	!	!	!	!	!	!	!	!	!	!	!	!	!
2.ryy	.	2.ryy	8r	.	8r	.	8r	.	2.r	2.r	2b-\	so-	2.ryy	2.r	.	2.r	.	0.r	.	2.ryy	2.ryy	.	.	.	.	0.r	.	2.r	.	.	.	2.r	.	1.r	.	1.r	.	2.ryy	2.ryy
.	.	.	8B-/L	.	8g/L	.	8b-/L	.	.	.	.	.	.	.	.	.	.	.	.	.	.	.	.	.	.	.	.	.	.	.	.	.	.	.	.	.	.	.	.
.	.	.	8B-/	.	8g/	.	8b-/	.	.	.	.	.	.	.	.	.	.	.	.	.	.	.	.	.	.	.	.	.	.	.	.	.	.	.	.	.	.	.	.
.	.	.	8B-/	.	8g/	.	(<8b-/	.	.	.	.	.	.	.	.	.	.	.	.	.	.	.	.	.	.	.	.	.	.	.	.	.	.	.	.	.	.	.	.
.	.	.	8c/	.	8f/	.	8a-/	.	.	.	8.a-/L	.	.	.	.	.	.	.	.	.	.	.	.	.	.	.	.	.	.	.	.	.	.	.	.	.	.	.	.
.	.	.	8d/J	.	8A-/J	.	8f/J)	.	.	.	.	.	.	.	.	.	.	.	.	.	.	.	.	.	.	.	.	.	.	.	.	.	.	.	.	.	.	.	.
.	.	.	.	.	.	.	.	.	.	.	16f/Jk	-li-	.	.	.	.	.	.	.	.	.	.	.	.	.	.	.	.	.	.	.	.	.	.	.	.	.	.	.
!	!	!	!	!	!	!	!	!	!	!	!LO:LB:g=original	!	!	!	!	!	!	!	!	!	!	!	!	!	!	!	!	!	!	!	!	!	!	!	!	!	!	!	!
!	!	!	!	!	!	!	!	!	!	!	!	!	!	!LO:LB:g=original	!	!	!	!	!	!	!	!	!	!	!	!	!	!	!	!	!	!	!	!	!	!	!	!	!
=38	=38	=38	=38	=38	=38	=38	=38	=38	=38	=38	=38	=38	=38	=38	=38	=38	=38	=38	=38	=38	=38	=38	=38	=38	=38	=38	=38	=38	=38	=38	=38	=38	=38	=38	=38	=38	=38	=38	=38
!	!	!	!	!	!	!	!	!	!	!	!	!	!	!LO:TX:a:t=5.	!	!LO:TX:a:t=5.	!	!	!	!	!	!	!	!	!	!	!	!	!	!	!	!	!	!	!	!	!	!	!
2.ryy	.	2.ryy	8e-\	.	16G/	.	16e-/	.	2.r	2.r	4e-/	-um,	2.ryy	0.r	.	0.r	.	.	.	2.ryy	2.ryy	2.r	.	2.r	.	.	.	4r	.	2.r	.	4r	.	.	.	.	.	2.ryy	2.ryy
.	.	.	.	.	16b-/LL	.	16bb-\LL	.	.	.	.	.	.	.	.	.	.	.	.	.	.	.	.	.	.	.	.	.	.	.	.	.	.	.	.	.	.	.	.
.	.	.	8r	.	16an/	.	16aan\	.	.	.	.	.	.	.	.	.	.	.	.	.	.	.	.	.	.	.	.	.	.	.	.	.	.	.	.	.	.	.	.
.	.	.	.	.	16b-/JJ	.	16bb-\JJ	.	.	.	.	.	.	.	.	.	.	.	.	.	.	.	.	.	.	.	.	.	.	.	.	.	.	.	.	.	.	.	.
!	!	!	!	!	!	!	!	!	!	!	!	!	!	!	!	!	!	!	!	!	!	!	!	!	!	!	!	!	!	!	!	!LO:TX:a:i:t=Solo	!	!	!	!	!	!	!
.	.	.	4r	.	16cc/LL	.	16ccc\LL	.	.	.	4r	.	.	.	.	.	.	.	.	.	.	.	.	.	.	.	.	8r	.	.	.	8r	.	.	.	.	.	.	.
.	.	.	.	.	16b-/	.	16bb-\	.	.	.	.	.	.	.	.	.	.	.	.	.	.	.	.	.	.	.	.	.	.	.	.	.	.	.	.	.	.	.	.
.	.	.	.	.	16a-X/	.	16aa-X\	.	.	.	.	.	.	.	.	.	.	.	.	.	.	.	.	.	.	.	.	16r	.	.	.	16r	.	.	.	.	.	.	.
*	*	*	*	*	*	*	*	*	*	*	*	*	*	*	*	*	*	*	*	*	*	*	*	*	*	*	*	*clefC4	*	*	*	*	*	*	*	*	*	*	*
.	.	.	.	.	16g/JJ	.	16gg\JJ	.	.	.	.	.	.	.	.	.	.	.	.	.	.	.	.	.	.	.	.	16g\	.	.	.	(>16gg\	p	.	.	.	.	.	.
.	.	.	4r	.	16f/LL	.	16ff\LL	.	.	.	4r	.	.	.	.	.	.	.	.	.	.	.	.	.	.	.	.	16f\LL	.	.	.	16ff\LL	.	.	.	.	.	.	.
.	.	.	.	.	16e-/	.	16ee-\	.	.	.	.	.	.	.	.	.	.	.	.	.	.	.	.	.	.	.	.	16e-\	.	.	.	16ee-\	.	.	.	.	.	.	.
.	.	.	.	.	16d/	.	16dd\	.	.	.	.	.	.	.	.	.	.	.	.	.	.	.	.	.	.	.	.	16d\	.	.	.	16dd\	.	.	.	.	.	.	.
.	.	.	.	.	16c/JJ	.	16cc\JJ	.	.	.	.	.	.	.	.	.	.	.	.	.	.	.	.	.	.	.	.	16c\JJ	.	.	.	16cc\JJ)	.	.	.	.	.	.	.
!	!	!	!	!	!	!	!	!	!	!	!	!	!	!	!	!	!	!	!	!	!	!	!	!	!	!	!	!	!	!LO:LB:g=original	!	!	!	!	!	!	!	!	!
=39	=39	=39	=39	=39	=39	=39	=39	=39	=39	=39	=39	=39	=39	=39	=39	=39	=39	=39	=39	=39	=39	=39	=39	=39	=39	=39	=39	=39	=39	=39	=39	=39	=39	=39	=39	=39	=39	=39	=39
2.ryy	.	2.ryy	4r	.	4B-/	.	8b-/L	.	2.r	2.r	4b-\	o	2.ryy	.	.	.	.	.	.	2.ryy	2.ryy	4r	.	4r	.	.	.	2.B-\	.	4r	.	[>2.b-\	.	4r	.	4r	.	2.ryy	2.ryy
.	.	.	.	.	.	.	16r	.	.	.	.	.	.	.	.	.	.	.	.	.	.	.	.	.	.	.	.	.	.	.	.	.	.	.	.	.	.	.	.
.	.	.	.	.	.	.	16g/Jk	.	.	.	.	.	.	.	.	.	.	.	.	.	.	.	.	.	.	.	.	.	.	.	.	.	.	.	.	.	.	.	.
.	.	.	4r	.	4r	.	16d/LL	.	.	.	8.b-\	Rex	.	.	.	.	.	.	.	.	.	4r	.	4r	.	.	.	.	.	4r	.	.	.	4r	.	4r	.	.	.
.	.	.	.	.	.	.	16e-/	.	.	.	.	.	.	.	.	.	.	.	.	.	.	.	.	.	.	.	.	.	.	.	.	.	.	.	.	.	.	.	.
.	.	.	.	.	.	.	16f/	.	.	.	.	.	.	.	.	.	.	.	.	.	.	.	.	.	.	.	.	.	.	.	.	.	.	.	.	.	.	.	.
.	.	.	.	.	.	.	16g/JJ	.	.	.	16ee-\	in-	.	.	.	.	.	.	.	.	.	.	.	.	.	.	.	.	.	.	.	.	.	.	.	.	.	.	.
!	!	!	!	!	!LO:TX:b:i:t=Volti Subitto	!	!	!	!	!	!	!	!	!	!	!	!	!	!	!	!	!	!	!	!	!	!	!	!	!	!	!	!	!	!	!	!	!	!
!	!	!	!	!	!	!	!	!	!	!	!	!	!	!	!	!	!	!	!	!	!	!	!	!	!	!	!	!	!	!	!	!	!	!	!LO:DY:b:t=po	!	!LO:DY:b:t=po	!	!
.	.	.	4F/	.	4d/	.	4a-/	.	.	.	8dd\	-ten-	.	.	.	.	.	.	.	.	.	(>4B-/	.	(>4f\	fp	.	.	.	.	4f/	.	.	.	(<4d/	p	(<4a-/	p	.	.
.	.	.	.	.	.	.	.	.	.	.	16ee-\LL	-de	.	.	.	.	.	.	.	.	.	.	.	.	.	.	.	.	.	.	.	.	.	.	.	.	.	.	.
.	.	.	.	.	.	.	.	.	.	.	16ff\JJ	.	.	.	.	.	.	.	.	.	.	.	.	.	.	.	.	.	.	.	.	.	.	.	.	.	.	.	.
!	!	!	!	!	!LO:PB:g=original	!	!	!	!	!	!	!	!	!	!	!	!	!	!	!	!	!	!	!	!	!	!	!	!	!	!	!	!	!	!	!	!	!	!
=40	=40	=40	=40	=40	=40	=40	=40	=40	=40	=40	=40	=40	=40	=40	=40	=40	=40	=40	=40	=40	=40	=40	=40	=40	=40	=40	=40	=40	=40	=40	=40	=40	=40	=40	=40	=40	=40	=40	=40
2.ryy	.	2.ryy	4G/	.	(<16e-/	.	16g/	.	2.r	2.r	8.ff\	Hos-	2.ryy	.	.	.	.	.	.	2.ryy	2.ryy	8e-\)	.	8g\)	.	.	.	8B-\	.	8g/	.	8b-\]	.	8e-/)	.	8g/)	.	2.ryy	2.ryy
.	.	.	.	.	16b-/LL	.	16bb-\LL	.	.	.	.	.	.	.	.	.	.	.	.	.	.	.	.	.	.	.	.	.	.	.	.	.	.	.	.	.	.	.	.
.	.	.	.	.	16an/	.	16aan\	.	.	.	.	.	.	.	.	.	.	.	.	.	.	8r	.	8r	.	.	.	8ryy	.	8r	.	8r	.	8r	.	8r	.	.	.
.	.	.	.	.	16b-/JJ	.	16bb-\JJ	.	.	.	16ee-\	-ti-	.	.	.	.	.	.	.	.	.	.	.	.	.	.	.	.	.	.	.	.	.	.	.	.	.	.	.
!	!	!	!	!	!	!	!	!	!	!	!	!	!	!	!	!	!	!	!	!	!	!	!	!	!	!	!	!	!	!	!	!LO:LB:g=original	!	!	!	!	!	!	!
.	.	.	4r	.	16cc/LL	.	16ccc\LL	.	.	.	4ee-\	-as	.	.	.	.	.	.	.	.	.	4r	.	4r	.	.	.	8r	.	4r	.	8r	.	4r	.	4r	.	.	.
.	.	.	.	.	16b-/	.	16bb-\	.	.	.	.	.	.	.	.	.	.	.	.	.	.	.	.	.	.	.	.	.	.	.	.	.	.	.	.	.	.	.	.
.	.	.	.	.	16a/	.	16aa-X\	.	.	.	.	.	.	.	.	.	.	.	.	.	.	.	.	.	.	.	.	16r	.	.	.	16r	.	.	.	.	.	.	.
.	.	.	.	.	16g/JJ	.	16gg\JJ	.	.	.	.	.	.	.	.	.	.	.	.	.	.	.	.	.	.	.	.	16g\	.	.	.	(>16gg\	.	.	.	.	.	.	.
!	!	!	!	!	!	!	!LO:LB:g=original	!	!	!	!	!	!	!	!	!	!	!	!	!	!	!	!	!	!	!	!	!	!	!	!	!	!	!	!	!	!	!	!
.	.	.	4r	.	16f/LL	.	16ff\LL	.	.	.	4r	.	.	.	.	.	.	.	.	.	.	4r	.	4r	.	.	.	(>16f\LL	.	4r	.	16ff\LL	.	4r	.	4r	.	.	.
.	.	.	.	.	16e-/	.	16ee-\	.	.	.	.	.	.	.	.	.	.	.	.	.	.	.	.	.	.	.	.	16e-\	.	.	.	16ee-\	.	.	.	.	.	.	.
.	.	.	.	.	16d/	.	16dd\	.	.	.	.	.	.	.	.	.	.	.	.	.	.	.	.	.	.	.	.	16d\)	.	.	.	16dd\	.	.	.	.	.	.	.
.	.	.	.	.	16c/JJ)	.	16cc\JJ	.	.	.	.	.	.	.	.	.	.	.	.	.	.	.	.	.	.	.	.	16c\JJ	.	.	.	16cc\JJ)	.	.	.	.	.	.	.
!	!	!	!	!	!	!	!	!	!	!	!	!	!	!	!	!	!	!	!	!	!	!	!	!	!	!	!	!LO:LB:g=original	!	!	!	!	!	!LO:PB:g=original	!	!	!	!	!
=41	=41	=41	=41	=41	=41	=41	=41	=41	=41	=41	=41	=41	=41	=41	=41	=41	=41	=41	=41	=41	=41	=41	=41	=41	=41	=41	=41	=41	=41	=41	=41	=41	=41	=41	=41	=41	=41	=41	=41
2.ryy	.	2.ryy	4r	.	4B-/	.	8b-/L	.	2.r	2.r	4b-\	de-	2.ryy	.	.	.	.	1.r	.	2.ryy	2.ryy	4r	.	4r	.	2.r	.	2.B-\	.	4r	.	[>2.b-\	.	4r	.	4r	.	2.ryy	2.ryy
.	.	.	.	.	.	.	16r	.	.	.	.	.	.	.	.	.	.	.	.	.	.	.	.	.	.	.	.	.	.	.	.	.	.	.	.	.	.	.	.
.	.	.	.	.	.	.	16e-/Jk	.	.	.	.	.	.	.	.	.	.	.	.	.	.	.	.	.	.	.	.	.	.	.	.	.	.	.	.	.	.	.	.
.	.	.	4r	.	4r	.	16d/LL	.	.	.	8.b-\	-fun-	.	.	.	.	.	.	.	.	.	4r	.	4r	.	.	.	.	.	4r	.	.	.	4r	.	4r	.	.	.
.	.	.	.	.	.	.	16e-/	.	.	.	.	.	.	.	.	.	.	.	.	.	.	.	.	.	.	.	.	.	.	.	.	.	.	.	.	.	.	.	.
.	.	.	.	.	.	.	16f/	.	.	.	.	.	.	.	.	.	.	.	.	.	.	.	.	.	.	.	.	.	.	.	.	.	.	.	.	.	.	.	.
.	.	.	.	.	.	.	16g/JJ	.	.	.	16ee-\	-cto	.	.	.	.	.	.	.	.	.	.	.	.	.	.	.	.	.	.	.	.	.	.	.	.	.	.	.
!	!	!	!	!	!	!	!	!	!	!	!	!	!	!	!	!	!	!	!	!	!	!	!	!	!LO:DY:b:t=po	!	!	!	!	!	!	!	!	!	!	!	!LO:DY:b:t=po	!	!
.	.	.	4F/	.	4d/	.	4a-/	.	.	.	8dd\	do-	.	.	.	.	.	.	.	.	.	(>4B-/	.	(>4f\	p	.	.	.	.	4f/	.	.	.	4d/	.	(<4a-/	p	.	.
.	.	.	.	.	.	.	.	.	.	.	16ee-\LL	-na	.	.	.	.	.	.	.	.	.	.	.	.	.	.	.	.	.	.	.	.	.	.	.	.	.	.	.
.	.	.	.	.	.	.	.	.	.	.	16ff\JJ	.	.	.	.	.	.	.	.	.	.	.	.	.	.	.	.	.	.	.	.	.	.	.	.	.	.	.	.
!	!	!	!	!	!	!	!	!	!	!	!LO:LB:g=original	!	!	!	!	!	!	!	!	!	!	!	!	!	!	!	!	!	!	!	!	!	!	!	!	!	!	!	!
!	!	!	!	!	!	!	!	!	!	!	!	!	!	!	!	!	!	!	!	!	!	!LO:LB:g=original	!	!	!	!LO:LB:g=original	!	!	!	!	!	!	!	!	!	!LO:LB:g=original	!	!	!
=42	=42	=42	=42	=42	=42	=42	=42	=42	=42	=42	=42	=42	=42	=42	=42	=42	=42	=42	=42	=42	=42	=42	=42	=42	=42	=42	=42	=42	=42	=42	=42	=42	=42	=42	=42	=42	=42	=42	=42
*tremolo	*	*	*	*	*	*	*	*	*	*	*	*	*	*	*	*	*	*	*	*	*	*	*	*	*	*	*	*	*	*	*	*	*	*	*	*	*	*	*
*	*	*	*tremolo	*	*	*	*	*	*	*	*	*	*	*	*	*	*	*	*	*	*	*	*	*	*	*	*	*	*	*	*	*	*	*	*	*	*	*	*
!	!LO:HP:b	!	!	!	!	!	!	!	!	!	!LO:SIC:l:s=prae	!	!	!	!	!	!	!	!	!	!	!	!	!	!	!	!	!	!	!	!	!	!	!	!	!	!	!	!
8E-\L	<	2.ryy	8G/L	.	16e-/	.	16g/	.	2.r	2.r	8.ff\	pre-	2.ryy	2.r	.	2.r	.	.	.	2.ryy	2.ryy	8e-\)	.	8g\)	.	4r	.	8B-\	.	16g/	.	16b-\]	.	16e-/	.	16g/)	.	2.ryy	2.ryy
.	.	.	.	.	(<16b-/LL	.	16bb-\LL	.	.	.	.	.	.	.	.	.	.	.	.	.	.	.	.	.	.	.	.	.	.	(>16b-\LL	.	16r	.	16r	.	16b-/LL	.	.	.
8E-\	.	.	8G/	.	16an/	.	16aan\	.	.	.	.	.	.	.	.	.	.	.	.	.	.	8r	.	8r	.	.	.	8r	.	16a\	.	8r	.	8r	.	16an/	.	.	.
.	.	.	.	.	16b-/JJ)	.	16bb-\JJ	.	.	.	16ee-\	-mi-	.	.	.	.	.	.	.	.	.	.	.	.	.	.	.	.	.	16b-\JJ	.	.	.	.	.	16b-/JJ	.	.	.
8E-\	.	.	8G/	.	(>16ee-\LL	.	16eee-\LL	.	.	.	4ee-\	-um	.	.	.	.	.	.	.	.	.	8r	.	8r	.	8r	.	8r	.	16ee-\LL	.	8r	.	8r	.	(>16ee-\LL	.	.	.
.	.	.	.	.	16dd-X\	.	16ddd-X\	.	.	.	.	.	.	.	.	.	.	.	.	.	.	.	.	.	.	.	.	.	.	16dd-X\	.	.	.	.	.	16dd-X\	.	.	.
8E-\	.	.	8G/	.	16cc\	.	16ccc\	.	.	.	.	.	.	.	.	.	.	.	.	.	.	8e-\L	.	8e-\L	.	16r	.	16r	.	16cc\	.	16r	.	16r	.	16cc\	.	.	.
*	*	*	*	*	*	*	*	*	*	*	*	*	*	*	*	*	*	*	*	*	*	*	*	*	*	*	*	*clefF4	*	*	*	*	*	*	*	*	*	*	*
.	.	.	.	.	16b-\JJ	.	16bb-\JJ	.	.	.	.	.	.	.	.	.	.	.	.	.	.	.	.	.	.	16B-\	.	16B-\	.	16b-\JJ	.	(>16bb-\	.	16b-/	.	16b-\JJ	.	.	.
8E-\	.	.	8G/	.	16a-X/LL	.	16aa-X\LL	.	.	.	4r	.	.	.	.	.	.	.	.	.	.	8e-\	.	8e-\	.	(>16A-\LL	.	16A-\LL	.	16a-X\LL	.	16aa-X\LL	.	(<16a-X/LL	.	16a-X/LL	.	.	.
.	.	.	.	.	16g/	.	16gg\	.	.	.	.	.	.	.	.	.	.	.	.	.	.	.	.	.	.	16G\	.	16G\	.	16g\	.	16gg\	.	16g/	.	16g/	.	.	.
8E-\J	.	.	8G/J	.	16f/	.	16ff\	.	.	.	.	.	.	.	.	.	.	.	.	.	.	8e-\J	.	8e-\J	.	16F\	.	16F\	.	16f\	.	16ff\	.	16f/	.	16f/	.	.	.
.	[	.	.	.	16e-/JJ)	.	16ee-\JJ	.	.	.	.	.	.	.	.	.	.	.	.	.	.	.	.	.	.	16E-\JJ	.	16E-\JJ	.	16e-\JJ)	.	16ee-\JJ	.	16e-/JJ)	.	16e-/JJ)	.	.	.
!LO:LB:g=original	!	!	!	!	!	!	!	!	!	!	!	!	!	!	!	!	!	!	!	!	!	!	!	!	!	!	!	!	!	!	!	!	!	!	!	!	!	!	!
!	!	!	!	!	!	!	!	!	!	!	!	!	!	!	!	!LO:LB:g=original	!	!	!	!	!	!	!	!LO:LB:g=original	!	!	!	!	!	!LO:LB:g=original	!	!	!	!	!	!	!	!	!
=43	=43	=43	=43	=43	=43	=43	=43	=43	=43	=43	=43	=43	=43	=43	=43	=43	=43	=43	=43	=43	=43	=43	=43	=43	=43	=43	=43	=43	=43	=43	=43	=43	=43	=43	=43	=43	=43	=43	=43
.	.	.	8qqB-/	.	.	.	.	.	.	.	.	.	.	.	.	.	.	.	.	.	.	.	.	.	.	.	.	.	.	.	.	.	.	.	.	.	.	.	.
!	!	!	!	!	!	!	!	!	!	!	!	!	!	!	!	!	!	!	!	!	!	!	!	!	!	!	!	!	!LO:HP:b	!	!	!	!	!	!	!	!LO:HP:b	!	!
8GG/L	.	2.ryy	8E-/L	.	(<16d-X/LL	.	16dd-X\LL	.	2.r	2.r	4dd-X\	scan-	2.ryy	4r	.	4r	.	4r	.	2.ryy	2.ryy	[>2.e-\	<	[>2.e-\	<[	16D-X/LL	.	16D-X/LL	<	(<16d-X/LL	.	16dd-X\LL	.	4.b-\	.	(>4.b-\	<	2.ryy	2.ryy
.	.	.	.	.	16c/	.	16cc\	.	.	.	.	.	.	.	.	.	.	.	.	.	.	.	.	.	.	16C/	.	16C/	.	16c/	.	16cc\	.	.	.	.	.	.	.
8GG/	.	.	8E-/	.	16B-/	.	16b-\	.	.	.	.	.	.	.	.	.	.	.	.	.	.	.	.	.	.	16BB-/	.	16BB-/	.	16B-/	.	16b-\	.	.	.	.	.	.	.
!	!	!	!	!	!	!	!	!	!	!	!	!	!	!	!	!	!	!	!	!	!	!	!	!	!	!	!	!	!	!	!	!	!LO:HP:b	!	!	!	!	!	!
.	.	.	.	.	16A-/JJ	.	16a-\JJ	.	.	.	.	.	.	.	.	.	.	.	.	.	.	.	.	.	.	16AA-/JJ)	.	16AA-/JJ	.	16A-/JJ)	.	16a-\JJ)	<	.	.	.	.	.	.
8GG/	.	.	8E-/	.	8G/L	.	16g/LL	.	.	.	8b-\	-dens	.	4r	.	4r	.	4r	.	.	.	.	.	.	.	2GG/	.	2GG/	.	8G/L	.	8g\L	.	.	.	.	.	.	.
.	.	.	.	.	.	.	16f/	.	.	.	.	.	.	.	.	.	.	.	.	.	.	.	.	.	.	.	.	.	.	.	.	.	.	.	.	.	.	.	.
8GG/	.	.	8E-/	.	8B-/	.	16e-/	.	.	.	8g\	ar-	.	.	.	.	.	.	.	.	.	.	.	.	.	.	.	.	.	8b-/	.	8ee-\	.	8e-/L	.	8b-\L	.	.	.
.	.	.	.	.	.	.	16d/JJ	.	.	.	.	.	.	.	.	.	.	.	.	.	.	.	.	.	.	.	.	.	.	.	.	.	.	.	.	.	.	.	.
8GG/	.	.	8E-/	.	8B-/	.	16c/LL	.	.	.	8e-/	-ces	.	8GG/	mf	8E-/	.	8B-\	.	.	.	.	.	.	.	.	.	.	.	8b-/	.	8ee-\	.	8e-/	.	8b-\	.	.	.
.	.	.	.	.	.	.	16d/	.	.	.	.	.	.	.	.	.	.	.	.	.	.	.	.	.	.	.	.	.	.	.	.	.	[	.	.	.	[	.	.
8GG/J	.	.	8E-/J	.	8B-/J)	.	16e-/	.	.	.	8ee-\	in	.	8r	.	8r	f	8r	.	.	.	.	.	.	.	.	.	.	.	8b-/J	.	8ee-\J	.	8e-/J	.	8b-\J)	.	.	.
.	.	.	.	.	.	.	16d/JJ	.	.	.	.	.	.	.	.	.	.	.	.	.	.	.	.	.	.	.	.	.	[	.	.	.	.	.	.	.	.	.	.
*	*	*	*Xtremolo	*	*	*	*	*	*	*	*	*	*	*	*	*	*	*	*	*	*	*	*	*	*	*	*	*	*	*	*	*	*	*	*	*	*	*	*
*Xtremolo	*	*	*	*	*	*	*	*	*	*	*	*	*	*	*	*	*	*	*	*	*	*	*	*	*	*	*	*	*	*	*	*	*	*	*	*	*	*	*
!	!	!	!	!	!LO:LB:g=original	!	!LO:LB:g=original	!	!	!	!	!	!	!	!	!	!	!	!	!	!	!	!	!	!	!	!	!	!	!LO:LB:g=original	!	!	!	!	!	!	!	!	!
=44	=44	=44	=44	=44	=44	=44	=44	=44	=44	=44	=44	=44	=44	=44	=44	=44	=44	=44	=44	=44	=44	=44	=44	=44	=44	=44	=44	=44	=44	=44	=44	=44	=44	=44	=44	=44	=44	=44	=44
!	!LO:DY:b	!	!	!	!	!LO:DY:b:t=fo:rj	!	!	!	!	!	!	!	!	!	!	!	!	!	!	!	!	!	!	!	!	!	!LO:DY:b	!	!LO:DY:b	!	!LO:DY:b	!	!	!	!	!	!	!
8AA-/L	f	2.ryy	8E-/L	.	8A-/L	f	16c/LL	.	2.r	2.r	8.ee-\	pa-	2.ryy	4AA-/	.	4E-/	f	8c\	f	2.ryy	2.ryy	4e-\]	[	4e-\]	fz	4AA-/	.	4AA-/	fz	4cc\	fz	4ee-\	fz	4e-/	.	4cc\	fz	2.ryy	2.ryy
.	.	.	.	.	.	.	16A-/	.	.	.	.	.	.	.	.	.	.	.	.	.	.	.	.	.	.	.	.	.	.	.	.	.	.	.	.	.	.	.	.
8AA-/J	.	.	8cJ 8E-/	.	8A-/J	.	16c/	.	.	.	.	.	.	.	.	.	.	8r	.	.	.	.	.	.	.	.	.	.	.	.	.	.	.	.	.	.	.	.	.
.	.	.	.	.	.	.	16e-/JJ	.	.	.	16cc\	-tri-	.	.	.	.	.	.	.	.	.	.	.	.	.	.	.	.	.	.	.	.	.	.	.	.	.	.	.
4AA-/	.	.	8c 8E-/	.	8A-/	.	16a-\LL	.	.	.	4a-\	-as,	.	4r	.	4r	.	4r	.	.	.	4r	.	4r	.	4r	.	4r	.	4r	.	4r	.	4r	.	4r	.	.	.
.	.	.	.	.	.	.	16cc\	.	.	.	.	.	.	.	.	.	.	.	.	.	.	.	.	.	.	.	.	.	.	.	.	.	.	.	.	.	.	.	.
.	.	.	8r	.	8r	.	16ee-\	.	.	.	.	.	.	.	.	.	.	.	.	.	.	.	.	.	.	.	.	.	.	.	.	.	.	.	.	.	.	.	.
.	.	.	.	.	.	.	16aa-\JJ	.	.	.	.	.	.	.	.	.	.	.	.	.	.	.	.	.	.	.	.	.	.	.	.	.	.	.	.	.	.	.	.
4r	.	.	4r	.	4r	.	8ccc\L	.	.	.	8r	.	.	4r	.	4r	.	4r	.	.	.	4r	.	4r	.	4r	.	4r	.	4r	.	4r	.	4r	.	4r	.	.	.
!	!	!	!	!	!	!	!	!	!	!	!LO:SIC:l:s=ae	!	!	!	!	!	!	!	!	!	!	!	!	!	!	!	!	!	!	!	!	!	!	!	!	!	!	!	!
.	.	.	.	.	.	.	8cc\J	.	.	.	8cc\	e-	.	.	.	.	.	.	.	.	.	.	.	.	.	.	.	.	.	.	.	.	.	.	.	.	.	.	.
!	!	!	!LO:LB:g=original	!	!	!	!	!	!	!	!	!	!	!	!	!	!	!	!	!	!	!	!	!	!	!	!	!	!	!	!	!	!	!	!	!	!	!	!
=45	=45	=45	=45	=45	=45	=45	=45	=45	=45	=45	=45	=45	=45	=45	=45	=45	=45	=45	=45	=45	=45	=45	=45	=45	=45	=45	=45	=45	=45	=45	=45	=45	=45	=45	=45	=45	=45	=45	=45
!	!	!	!	!	!	!	!	!	!	!	!	!	!	!LO:TX:a:t=4	!	!LO:TX:a:t=4.	!	!LO:TX:a:t=4	!	!	!	!LO:TX:a:t=2	!	!LO:TX:a:t=2	!	!LO:TX:a:t=3. (nad liczbą łuczek)	!	!LO:TX:a:t=3	!	!LO:TX:a:t=2	!	!LO:TX:a:t=2	!	!LO:TX:a:t=3.	!	!LO:TX:a:t=3	!	!	!
2.r	.	2.ryy	8r	.	8r	.	8dd\L	.	2.r	2.r	8dd\	-ter-	2.ryy	0.r	.	0.r	.	0.r	.	2.ryy	2.ryy	1.r	.	1.r	.	1.r	.	1.r	.	1.r	.	1.r	.	1.r	.	1.r	.	2.ryy	2.ryy
!	!	!	!	!	!	!LO:DY:b:rj	!	!	!	!	!	!	!	!	!	!	!	!	!	!	!	!	!	!	!	!	!	!	!	!	!	!	!	!	!	!	!	!	!
.	.	.	8g\L	.	(>8b-\L	pp	8een\	.	.	.	8een\	-num	.	.	.	.	.	.	.	.	.	.	.	.	.	.	.	.	.	.	.	.	.	.	.	.	.	.	.
!LO:TX:a:t=1	!	!	!LO:SIC:s=8a-	!	!	!	!	!	!	!	!	!	!	!	!	!	!	!	!	!	!	!	!	!	!	!	!	!	!	!	!	!	!	!	!	!	!	!	!
.	.	.	8a\	.	8cc\	.	8ff\	.	.	.	8ff\L	spec-	.	.	.	.	.	.	.	.	.	.	.	.	.	.	.	.	.	.	.	.	.	.	.	.	.	.	.
.	.	.	8g\	.	8b-\	.	8gg\	.	.	.	8gg\J	.	.	.	.	.	.	.	.	.	.	.	.	.	.	.	.	.	.	.	.	.	.	.	.	.	.	.	.
.	.	.	8f\	.	8a-\	.	8aa-\	.	.	.	8aa-\L	-tet	.	.	.	.	.	.	.	.	.	.	.	.	.	.	.	.	.	.	.	.	.	.	.	.	.	.	.
!	!	!	!LO:SIC:s=8a-	!	!	!	!	!	!	!	!	!	!	!	!	!	!	!	!	!	!	!	!	!	!	!	!	!	!	!	!	!	!	!	!	!	!	!	!
.	.	.	8a\J	.	8cc\J)	.	8ff\J	.	.	.	8ff\J	.	.	.	.	.	.	.	.	.	.	.	.	.	.	.	.	.	.	.	.	.	.	.	.	.	.	.	.
!	!	!	!	!	!	!	!	!	!	!	!LO:LB:g=original	!	!	!	!	!	!	!	!	!	!	!	!	!	!	!	!	!	!	!	!	!	!	!	!	!	!	!	!
=46	=46	=46	=46	=46	=46	=46	=46	=46	=46	=46	=46	=46	=46	=46	=46	=46	=46	=46	=46	=46	=46	=46	=46	=46	=46	=46	=46	=46	=46	=46	=46	=46	=46	=46	=46	=46	=46	=46	=46
4r	.	2.ryy	8g/L	.	(<8b-/L	.	8ee-X\L	.	2.r	2.r	2ee-X\	so-	2.ryy	.	.	.	.	.	.	2.ryy	2.ryy	.	.	.	.	.	.	.	.	.	.	.	.	.	.	.	.	2.ryy	2.ryy
.	.	.	8e-/	.	8g/	.	8b-\J	.	.	.	.	.	.	.	.	.	.	.	.	.	.	.	.	.	.	.	.	.	.	.	.	.	.	.	.	.	.	.	.
!	!LO:DY:b	!	!	!	!	!	!	!	!	!	!	!	!	!	!	!	!	!	!	!	!	!	!	!	!	!	!	!	!	!	!	!	!	!	!	!	!	!	!
8B-\	pp	.	8B-/	.	8e-/	.	8g/L	.	.	.	.	.	.	.	.	.	.	.	.	.	.	.	.	.	.	.	.	.	.	.	.	.	.	.	.	.	.	.	.
8r	.	.	8G/	.	8B-/	.	8e-/	.	.	.	.	.	.	.	.	.	.	.	.	.	.	.	.	.	.	.	.	.	.	.	.	.	.	.	.	.	.	.	.
8BB-/	.	.	8F/	.	8A-/	.	8B-/	.	.	.	4dd\	-li-	.	.	.	.	.	.	.	.	.	.	.	.	.	.	.	.	.	.	.	.	.	.	.	.	.	.	.
8r	.	.	8F/J	.	8A-/J)	.	8d/J	.	.	.	.	.	.	.	.	.	.	.	.	.	.	.	.	.	.	.	.	.	.	.	.	.	.	.	.	.	.	.	.
=47	=47	=47	=47	=47	=47	=47	=47	=47	=47	=47	=47	=47	=47	=47	=47	=47	=47	=47	=47	=47	=47	=47	=47	=47	=47	=47	=47	=47	=47	=47	=47	=47	=47	=47	=47	=47	=47	=47	=47
!	!	!	!LO:TX:t=P:problem=mixed beam	!	!	!	!LO:TX:t=P:problem=mixed beam	!	!	!	!	!	!	!	!	!	!	!	!	!	!	!	!	!	!	!	!	!	!	!	!	!	!	!	!	!	!	!	!
!	!	!	!	!	!	!	!	!	!	!	!	!	!	!	!	!	!	!	!	!	!	!	!LO:DY:b:t=po	!	!	!	!	!	!	!	!LO:DY:b:t=po	!	!LO:DY:b:t=po	!	!	!	!	!	!
2.ryy	.	2.ryy	16E-/KL	.	16G/KL	.	16e-/KL	.	2.r	2.r	4ee-\	-um	2.ryy	.	.	.	.	.	.	2.ryy	2.ryy	[>2.e-\	p	(>2.e-\	.	2.r	.	2.r	.	(>2.ee-\	p	(>2.ee-\	p	2.r	.	2.r	.	2.ryy	2.ryy
.	.	.	8e-\	.	8g/	.	8ee-\	.	.	.	.	.	.	.	.	.	.	.	.	.	.	.	.	.	.	.	.	.	.	.	.	.	.	.	.	.	.	.	.
.	.	.	8e-\	.	8g/	.	8ee-\	.	.	.	.	.	.	.	.	.	.	.	.	.	.	.	.	.	.	.	.	.	.	.	.	.	.	.	.	.	.	.	.
.	.	.	.	.	.	.	.	.	.	.	8r	.	.	.	.	.	.	.	.	.	.	.	.	.	.	.	.	.	.	.	.	.	.	.	.	.	.	.	.
.	.	.	8e-\	.	8g/	.	8ee-\	.	.	.	.	.	.	.	.	.	.	.	.	.	.	.	.	.	.	.	.	.	.	.	.	.	.	.	.	.	.	.	.
!	!	!	!	!	!	!	!	!	!	!	!LO:SIC:l:s=ae	!	!	!	!	!	!	!	!	!	!	!	!	!	!	!	!	!	!	!	!	!	!	!	!	!	!	!	!
.	.	.	.	.	.	.	.	.	.	.	8ee-\	e-	.	.	.	.	.	.	.	.	.	.	.	.	.	.	.	.	.	.	.	.	.	.	.	.	.	.	.
.	.	.	8e-\	.	8g/	.	8ee-\	.	.	.	.	.	.	.	.	.	.	.	.	.	.	.	.	.	.	.	.	.	.	.	.	.	.	.	.	.	.	.	.
.	.	.	.	.	.	.	.	.	.	.	8ff\	-ter-	.	.	.	.	.	.	.	.	.	.	.	.	.	.	.	.	.	.	.	.	.	.	.	.	.	.	.
.	.	.	8e-\	.	8g/	.	8ee-\	.	.	.	.	.	.	.	.	.	.	.	.	.	.	.	.	.	.	.	.	.	.	.	.	.	.	.	.	.	.	.	.
.	.	.	.	.	.	.	.	.	.	.	8gg\	-num	.	.	.	.	.	.	.	.	.	.	.	.	.	.	.	.	.	.	.	.	.	.	.	.	.	.	.
.	.	.	16e-\Jk	.	16g/Jk	.	16ee-\Jk	.	.	.	.	.	.	.	.	.	.	.	.	.	.	.	.	.	.	.	.	.	.	.	.	.	.	.	.	.	.	.	.
!	!	!	!	!	!	!	!	!	!	!	!	!	!	!	!	!	!	!	!	!	!	!	!	!	!	!	!	!	!	!	!	!	!	!LO:LB:g=original	!	!	!	!	!
=48	=48	=48	=48	=48	=48	=48	=48	=48	=48	=48	=48	=48	=48	=48	=48	=48	=48	=48	=48	=48	=48	=48	=48	=48	=48	=48	=48	=48	=48	=48	=48	=48	=48	=48	=48	=48	=48	=48	=48
!	!	!	!LO:SIC:s=16a-	!	!LO:TX:t=P:problem=mixed beam	!	!	!	!	!	!	!	!	!	!	!	!	!	!	!	!	!	!	!	!	!	!	!	!	!	!	!	!	!	!	!	!	!	!
!	!	!	!	!	!	!	!	!	!	!	!	!	!	!	!	!	!	!	!	!	!	!	!	!	!	!	!	!	!	!	!	!	!	!	!LO:DY:b:t=po	!	!LO:DY:b:t=po	!	!
2.ryy	.	2.ryy	16a\KL	.	16c/KL	.	16ffKL 16ee-\	.	2.r	2.r	4cc\	spec-	2.ryy	.	.	.	.	.	.	2.ryy	2.ryy	2.e-\]	.	2.f\)	.	2.c\	p	(>2.c\	.	2.ee-\	.	2.ee-\	<	2.cc\	p	(>2.cc\	p	2.ryy	2.ryy
!	!	!	!LO:SIC:s=8a-	!	!	!	!	!	!	!	!	!	!	!	!	!	!	!	!	!	!	!	!	!	!	!	!	!	!	!	!	!	!	!	!	!	!	!	!
.	.	.	8a\	.	8cc\	.	8ff 8ee-\	.	.	.	.	.	.	.	.	.	.	.	.	.	.	.	.	.	.	.	.	.	.	.	.	.	.	.	.	.	.	.	.
!	!	!	!LO:SIC:s=8a-	!	!	!	!	!	!	!	!	!	!	!	!	!	!	!	!	!	!	!	!	!	!	!	!	!	!	!	!	!	!	!	!	!	!	!	!
.	.	.	8a\	.	8cc\	.	8ff 8ee-\	.	.	.	.	.	.	.	.	.	.	.	.	.	.	.	.	.	.	.	<	.	.	.	.	.	.	.	.	.	.	.	.
.	.	.	.	.	.	.	.	.	.	.	8cc\L	.	.	.	.	.	.	.	.	.	.	.	.	.	.	.	.	.	.	.	.	.	.	.	.	.	.	.	.
!	!	!	!LO:SIC:s=8a-	!	!	!	!	!	!	!	!	!	!	!	!	!	!	!	!	!	!	!	!	!	!	!	!	!	!	!	!	!	!	!	!	!	!	!	!
.	.	.	8a\	.	8cc\	.	8ff 8ee-\	.	.	.	.	.	.	.	.	.	.	.	.	.	.	.	.	.	.	.	.	.	.	.	.	.	.	.	.	.	.	.	.
.	.	.	.	.	.	.	.	.	.	.	16dd\L	.	.	.	.	.	.	.	.	.	.	.	.	.	.	.	.	.	.	.	.	.	.	.	.	.	.	.	.
!	!	!	!LO:SIC:s=8a-	!	!	!	!	!	!	!	!	!	!	!	!	!	!	!	!	!	!	!	!	!	!	!	!	!	!	!	!	!	!	!	!	!	!	!	!
.	.	.	8a\	.	8cc\	.	8ff 8ee-\	.	.	.	16ee-\JJ	.	.	.	.	.	.	.	.	.	.	.	.	.	.	.	.	.	.	.	.	.	.	.	.	.	.	.	.
.	.	.	.	.	.	.	.	.	.	.	8ff\	.	.	.	.	.	.	.	.	.	.	.	.	.	.	.	.	.	.	.	.	.	.	.	.	.	.	.	.
!	!	!	!LO:SIC:s=8a-	!	!	!	!	!	!	!	!	!	!	!	!	!	!	!	!	!	!	!	!	!	!	!	!	!	!	!	!	!	!	!	!	!	!	!	!
.	.	.	8a\	.	8cc\	.	8ff 8ee-\	.	.	.	.	.	.	.	.	.	.	.	.	.	.	.	.	.	.	.	.	.	.	.	.	.	.	.	.	.	.	.	.
.	.	.	.	.	.	.	.	.	.	.	16gg\LL	-tet	.	.	.	.	.	.	.	.	.	.	.	.	.	.	.	.	.	.	.	.	.	.	.	.	.	.	.
!	!	!	!LO:SIC:s=16a-	!	!	!	!	!	!	!	!	!	!	!	!	!	!	!	!	!	!	!	!	!	!	!	!	!	!	!	!	!	!	!	!	!	!	!	!
.	.	.	16a\Jk	.	16cc\Jk	.	16ffJk 16ee-\	.	.	.	16aa-\JJ	.	.	.	.	.	.	.	.	.	.	.	.	.	.	.	.	.	.	.	.	.	.	.	.	.	.	.	.
!	!	!	!	!	!LO:LB:g=original	!	!LO:LB:g=original	!	!	!	!	!	!	!	!	!	!	!	!	!	!	!	!	!	!	!	!	!	!	!	!	!	!	!	!	!	!	!	!
!	!	!	!	!	!	!	!	!	!	!	!	!	!	!	!	!	!	!	!	!	!	!	!	!	!	!	!	!	!	!	!	!	!	!	!	!LO:LB:g=original	!	!	!
=49	=49	=49	=49	=49	=49	=49	=49	=49	=49	=49	=49	=49	=49	=49	=49	=49	=49	=49	=49	=49	=49	=49	=49	=49	=49	=49	=49	=49	=49	=49	=49	=49	=49	=49	=49	=49	=49	=49	=49
!	!	!	!	!	!	!	!	!	!	!	!	!	!	!	!	!	!	!	!	!	!	!	!	!	!	!	!	!	!	!	!	!	!	!	!LO:DY:b	!	!LO:DY:b:t=fo	!	!
2.ryy	.	2.ryy	8g\L	.	16b-/LL	.	16ggLL 16ee-\	.	2.r	2.r	2b-\	so-	2.ryy	4r	.	4r	.	4r	.	2.ryy	2.ryy	(>4e-\	.	(>4g\	f	4e-\	.	4e-\	.	4ee-\	.	4gg\	.	(>2b-\	f	(>2b-\)	f	2.ryy	2.ryy
.	.	.	.	.	16g/	.	16bb-\	.	.	.	.	.	.	.	.	.	.	.	.	.	.	.	.	.	.	.	.	.	.	.	.	.	.	.	.	.	.	.	.
.	.	.	8b-\	.	16f/	.	16aa-\	.	.	.	.	.	.	.	.	.	.	.	.	.	.	.	.	.	.	.	.	.	.	.	.	.	.	.	.	.	.	.	.
.	.	.	.	.	16g/JJ	.	16gg\JJ	.	.	.	.	.	.	.	.	.	.	.	.	.	.	.	.	.	.	.	.	.	.	.	.	.	.	.	.	.	.	.	.
!	!	!	!	!	!	!LO:DY:b	!	!	!	!	!	!	!	!	!	!	!	!	!	!	!	!	!LO:DY:b:t=fo	!	!	!	!	!	!	!	!	!	!	!	!	!	!	!	!
.	.	.	8d\	.	8a-/L	f	16ff\LL	.	.	.	.	.	.	4.BB-/	fz	4.A-\	fz	4.d\	.	.	.	4.f\	f	4.a-\	.	4.d\	f	4.d\)	f	4.ff\	fz	4.aa-\	.	.	.	.	.	.	.
.	.	.	.	.	.	.	16ee-\	.	.	.	.	.	.	.	.	.	.	.	.	.	.	.	.	.	.	.	.	.	.	.	.	.	.	.	.	.	.	.	.
.	.	.	8f\	.	8d 8A-/	.	16dd\	.	.	.	.	.	.	.	.	.	.	.	.	.	.	.	.	.	.	.	.	.	.	.	.	.	.	.	.	.	.	.	.
.	.	.	.	.	.	.	16cc\JJ	.	.	.	.	.	.	.	.	.	.	.	.	.	.	.	.	.	.	.	.	.	.	.	.	.	.	.	.	.	.	.	.
.	.	.	8B-\	.	8d 8A-/	.	16b-/LL	.	.	.	4dd\	-li-	.	.	.	.	.	.	.	.	.	.	.	.	.	.	.	.	.	.	.	.	.	8b-\L	.	8b-\L	.	.	.
.	.	.	.	.	.	.	16a-/	.	.	.	.	.	.	.	.	.	.	.	.	.	.	.	.	.	.	.	.	.	.	.	.	.	.	.	.	.	.	.	.
.	.	.	8B-\J	.	8dJ 8A-/	.	16g/	.	.	.	.	.	.	8BB-/	.	8F/	.	8d\	.	.	.	8B-/)	.	8f\)	.	8BB-/	.	8BB-/	.	8dd\)	.	8ff\	.	8a-\J)	.	8dd\J)	.	.	.
.	.	.	.	.	.	.	16f/JJ	.	.	.	.	.	.	.	.	.	.	.	.	.	.	.	.	.	.	.	.	.	.	.	.	.	.	.	.	.	.	.	.
!	!	!	!	!	!	!	!	!	!	!	!	!	!	!	!	!	!	!	!	!	!	!	!	!	!	!LO:LB:g=original	!	!	!	!LO:LB:g=original	!	!	!	!	!	!	!	!	!
=50	=50	=50	=50	=50	=50	=50	=50	=50	=50	=50	=50	=50	=50	=50	=50	=50	=50	=50	=50	=50	=50	=50	=50	=50	=50	=50	=50	=50	=50	=50	=50	=50	=50	=50	=50	=50	=50	=50	=50
!	!	!	!LO:N:vis=4	!	!	!	!	!	!	!	!	!	!	!	!	!	!	!	!	!	!	!	!	!	!	!	!	!	!	!	!	!	!	!	!	!	!	!	!
2.ryy	.	2.ryy	8B-/	.	4e- 4G/	.	4e-/	.	2.r	2.r	4ee-\	-um	2.ryy	4E-\	.	4G/	.	4e-\	.	2.ryy	2.ryy	4E-/	.	4e-\	.	4E-\	.	4E-\	.	4ee-\	.	4ee-\	.	4g/	.	4ee-\	.	2.ryy	2.ryy
.	.	.	8r	.	.	.	.	.	.	.	.	.	.	.	.	.	.	.	.	.	.	.	.	.	.	.	.	.	.	.	.	.	.	.	.	.	.	.	.
.	.	.	8r	.	8r	.	8r	.	.	.	4r	.	.	4r	.	4r	.	4r	.	.	.	4r	.	4r	.	4r	.	4r	.	4r	.	4r)	.	4r	.	4r	.	.	.
.	.	.	8e-\L	.	8g/L	.	8ee-\L	.	.	.	.	.	.	.	.	.	.	.	.	.	.	.	.	.	.	.	.	.	.	.	.	.	.	.	.	.	.	.	.
.	.	.	8f\	.	8a-/	.	8dd\	.	.	.	4r	.	.	4r	.	4r	.	4r	.	.	.	4r	.	4r	.	4r	.	4r	.	4r	.	4r	.	4r	.	4r	.	.	.
.	.	.	8f#X\J	.	8an/J	.	8cc\J	.	.	.	.	.	.	.	.	.	.	.	.	.	.	.	.	.	.	.	.	.	.	.	.	.	.	.	.	.	.	.	.
!	!	!	!LO:LB:g=original	!	!	!	!	!	!	!	!LO:LB:g=original	!	!	!	!	!	!	!	!	!	!	!	!	!	!	!LO:PB:g=original	!	!	!	!	!	!	!	!	!	!	!	!	!
!	!	!	!	!	!	!	!	!	!	!	!	!	!	!	!	!	!	!LO:LB:g=original	!	!	!	!LO:LB:g=original	!	!	!	!	!	!	!	!	!	!	!	!	!	!	!	!	!
=51	=51	=51	=51	=51	=51	=51	=51	=51	=51	=51	=51	=51	=51	=51	=51	=51	=51	=51	=51	=51	=51	=51	=51	=51	=51	=51	=51	=51	=51	=51	=51	=51	=51	=51	=51	=51	=51	=51	=51
!	!	!	!	!	!	!	!	!	!	!	!	!	!	!LO:TX:a:t=2	!	!LO:TX:a:t=2	!	!LO:TX:a:t=2	!	!	!	!LO:TX:a:t=2	!	!LO:TX:a:t=2	!	!LO:TX:a:t=2	!	!LO:TX:a:t=2	!	!LO:TX:a:t=2	!	!LO:TX:a:t=2	!	!LO:TX:a:t=2	!	!LO:TX:a:t=2	!	!	!
2.ryy	.	2.ryy	4g\	.	4b-\	.	4b-\	.	2.r	2.r	4.ee-\	o	2.ryy	1.r	.	1.r	.	1.r	.	2.ryy	2.ryy	1.r	.	1.r	.	1.r	.	1.r	.	1.r	.	1.r	.	1.r	.	1.r	.	2.ryy	2.ryy
.	.	.	4r	.	4r	.	4r	.	.	.	.	.	.	.	.	.	.	.	.	.	.	.	.	.	.	.	.	.	.	.	.	.	.	.	.	.	.	.	.
.	.	.	.	.	.	.	.	.	.	.	16dd\	Rex	.	.	.	.	.	.	.	.	.	.	.	.	.	.	.	.	.	.	.	.	.	.	.	.	.	.	.
.	.	.	.	.	.	.	.	.	.	.	16cc\	in-	.	.	.	.	.	.	.	.	.	.	.	.	.	.	.	.	.	.	.	.	.	.	.	.	.	.	.
.	.	.	8fn\	.	8d/	.	8a- 8B-/	.	.	.	8b-\	-ten-	.	.	.	.	.	.	.	.	.	.	.	.	.	.	.	.	.	.	.	.	.	.	.	.	.	.	.
.	.	.	8r	.	8r	.	8r	.	.	.	8b-\	-de	.	.	.	.	.	.	.	.	.	.	.	.	.	.	.	.	.	.	.	.	.	.	.	.	.	.	.
=52	=52	=52	=52	=52	=52	=52	=52	=52	=52	=52	=52	=52	=52	=52	=52	=52	=52	=52	=52	=52	=52	=52	=52	=52	=52	=52	=52	=52	=52	=52	=52	=52	=52	=52	=52	=52	=52	=52	=52
2.ryy	.	2.ryy	8e-\	.	8e-/	.	8g 8B-/	.	2.r	2.r	8.b-\	Ho-	2.ryy	.	.	.	.	.	.	2.ryy	2.ryy	.	.	.	.	.	.	.	.	.	.	.	.	.	.	.	.	2.ryy	2.ryy
.	.	.	8r	.	8r	.	8r	.	.	.	.	.	.	.	.	.	.	.	.	.	.	.	.	.	.	.	.	.	.	.	.	.	.	.	.	.	.	.	.
.	.	.	.	.	.	.	.	.	.	.	16g\	-sti-	.	.	.	.	.	.	.	.	.	.	.	.	.	.	.	.	.	.	.	.	.	.	.	.	.	.	.
.	.	.	8r	.	8r	.	8r	.	.	.	4e-/	-as,	.	.	.	.	.	.	.	.	.	.	.	.	.	.	.	.	.	.	.	.	.	.	.	.	.	.	.
.	.	.	8e-\L	.	8g\L	.	8ee-\L	.	.	.	.	.	.	.	.	.	.	.	.	.	.	.	.	.	.	.	.	.	.	.	.	.	.	.	.	.	.	.	.
.	.	.	8f\	.	8a-\	.	8dd\	.	.	.	4r	.	.	.	.	.	.	.	.	.	.	.	.	.	.	.	.	.	.	.	.	.	.	.	.	.	.	.	.
.	.	.	8f#X\J	.	8an\J	.	8cc\J	.	.	.	.	.	.	.	.	.	.	.	.	.	.	.	.	.	.	.	.	.	.	.	.	.	.	.	.	.	.	.	.
!	!	!	!	!	!	!	!	!	!	!	!	!	!	!	!	!	!	!	!	!	!	!	!	!	!	!	!	!	!	!	!	!LO:LB:g=original	!	!	!	!	!	!	!
=53	=53	=53	=53	=53	=53	=53	=53	=53	=53	=53	=53	=53	=53	=53	=53	=53	=53	=53	=53	=53	=53	=53	=53	=53	=53	=53	=53	=53	=53	=53	=53	=53	=53	=53	=53	=53	=53	=53	=53
*^	*	*	*	*	*	*	*	*	*	*	*	*	*	*	*	*	*	*	*	*	*	*	*	*	*	*	*	*	*	*	*	*	*	*	*	*	*	*	*
4g/	4r	.	2.ryy	4g\	.	4b-\	.	4b-\	.	2.r	2.r	4.ee-;>\	de-	2.ryy	4r	.	4r	.	4r	.	2.ryy	2.ryy	4r	.	4r	.	4r	.	4r	.	4r	.	4r	.	4r	.	4r	.	2.ryy	2.ryy
4r;>	4ryy	.	.	4r;>	.	4r;>	.	4r;>	.	.	.	.	.	.	4r;>	.	4r;>	.	4r;>	.	.	.	4r;>	.	4r;>	.	4r;>	.	4r;>	.	4r;>	.	4r;>	.	4r;>	.	4r;>	.	.	.
.	.	.	.	.	.	.	.	.	.	.	.	16dd\	-fun-	.	.	.	.	.	.	.	.	.	.	.	.	.	.	.	.	.	.	.	.	.	.	.	.	.	.	.
.	.	.	.	.	.	.	.	.	.	.	.	16cc\	-cto	.	.	.	.	.	.	.	.	.	.	.	.	.	.	.	.	.	.	.	.	.	.	.	.	.	.	.
!	!	!LO:DY:b:rj	!	!LO:SIC:s=8A-	!	!	!	!	!	!	!	!	!	!	!	!	!	!	!	!	!	!	!	!	!	!	!	!	!	!	!	!	!	!	!	!	!	!	!	!
8BB-/	8BB-\	pp	.	8A/	.	8d/	.	4f 4B-/	.	.	.	8b-\	do-	.	4r	.	4r	.	4r	.	.	.	4r	.	4r	.	4r	.	4r	.	4r	.	4r	.	4r	.	4r	.	.	.
8r	8ryy	.	.	8r	.	8r	.	.	.	.	.	8b-\	-na	.	.	.	.	.	.	.	.	.	.	.	.	.	.	.	.	.	.	.	.	.	.	.	.	.	.	.
!	!	!	!	!	!	!LO:LB:g=original	!	!LO:LB:g=original	!	!	!	!	!	!	!LO:LB:g=original	!	!LO:LB:g=original	!	!	!	!	!	!	!	!	!	!	!	!	!	!	!	!	!	!	!	!	!	!	!
=54	=54	=54	=54	=54	=54	=54	=54	=54	=54	=54	=54	=54	=54	=54	=54	=54	=54	=54	=54	=54	=54	=54	=54	=54	=54	=54	=54	=54	=54	=54	=54	=54	=54	=54	=54	=54	=54	=54	=54	=54
!	!	!	!	!	!	!	!	!	!	!	!	!LO:SIC:l:s=prae	!	!	!	!	!	!	!	!	!	!	!	!	!	!	!	!	!	!>	!	!	!	!	!	!	!	!	!	!
8E-/	8E-\	.	2.ryy	8G/	.	8e-/	.	8e- 8B-/	.	2.r	2.r	8.b-\	pre-	2.ryy	4r;>	.	4r;>	.	4r;>	.	2.ryy	2.ryy	4r;>	.	4r;>	.	4r	.	4r	.	4r;	.	4r;>	.	4r;>	.	4r;>	.	2.ryy	2.ryy
8r;>	8ryy	.	.	8r;>	.	8r;>	.	8r;>	.	.	.	.	.	.	.	.	.	.	.	.	.	.	.	.	.	.	.	.	.	.	.	.	.	.	.	.	.	.	.	.
.	.	.	.	.	.	.	.	.	.	.	.	16g\	-mi-	.	.	.	.	.	.	.	.	.	.	.	.	.	.	.	.	.	.	.	.	.	.	.	.	.	.	.
*	*	*	*	*	*	*	*	*	*	*	*	*	*	*	*	*	*	*	*	*	*	*	*	*	*	*	*	*	*clefC4	*	*	*	*	*	*	*	*	*	*	*
!LO:LB:g=original	!	!	!	!	!	!	!	!	!	!	!	!	!	!	!	!	!	!	!	!	!	!	!	!	!	!	!	!	!	!	!	!	!	!	!	!	!	!	!	!
8r	2ryy	.	.	8r	.	8r	.	8r	.	.	.	4e-/	-um.	.	8r	.	8r	.	8r	f	.	.	8r	.	8r	.	8r	.	8r	.	8r	.	8r	.	8r	.	8r	.	.	.
!	!	!LO:DY:b:rj	!	!	!	!	!	!	!	!	!	!	!	!	!	!	!	!	!	!	!	!	!	!	!	!	!	!	!	!	!	!	!	!	!	!	!	!LO:DY:b:t=fo:rj	!	!
8EE-/L	.	f	.	8B-L 8E-/	.	8G/L	.	8e-/L	.	.	.	.	.	.	8E-\L	.	8E-/L	.	8E-/L	.	.	.	8E-/L	.	8B-/L	fz	8G\L	.	8e-\L	.	8g/L	.	8ee-\L	.	8g/L	.	8ee-\L	f	.	.
8GG/	.	.	.	8B- 8E-/	.	8G/	.	8e-/	.	.	.	4r	.	.	8G\	.	8G/	.	8G/	.	.	.	8E-/	.	8B-/	.	8G\	.	8e-	.	8g/	.	8ee-\	.	8g/	.	8ee-\	.	.	.
8BB-/J	.	.	.	8B-J 8E-/	.	8G/J	.	8e-/J	.	.	.	.	.	.	8B-\J	.	8B-/J	.	8B-/J	.	.	.	8E-/J	.	8B-/J	.	8G\J	.	8e-\J	.	8g/J	.	8ee-\J	.	8g/J	.	8ee-\J	.	.	.
*v	*v	*	*	*	*	*	*	*	*	*	*	*	*	*	*	*	*	*	*	*	*	*	*	*	*	*	*	*	*	*	*	*	*	*	*	*	*	*	*	*
!	!	!	!	!	!	!	!	!	!	!	!	!	!	!	!	!	!	!	!	!	!	!	!	!	!	!	!	!	!	!	!	!	!	!	!LO:LB:g=original	!	!	!	!
=55	=55	=55	=55	=55	=55	=55	=55	=55	=55	=55	=55	=55	=55	=55	=55	=55	=55	=55	=55	=55	=55	=55	=55	=55	=55	=55	=55	=55	=55	=55	=55	=55	=55	=55	=55	=55	=55	=55	=55
8..E-\L	.	2.ryy	8.B-L 8.E-/	.	8.G/L	.	8.e-/L	.	2.r	2.r	2.r	.	2.ryy	8.e-\L	.	8.e-\L	.	8..e-\L	.	2.ryy	2.ryy	8..E-/L	.	8.B-/L	.	8..G\L	.	(>8..e-\L	.	8..g/L	.	8..ee-\L	.	8..g/L	.	8..ee-\L	.	2.ryy	2.ryy
.	.	.	16B-Jk 16E-/	.	16G/Jk	.	16B-/Jk	.	.	.	.	.	.	16E-\Jk	.	16G\Jk	.	.	.	.	.	.	.	16B-/Jk	.	.	.	.	.	.	.	.	.	.	.	.	.	.	.
32E-\Jkk	.	.	.	.	.	.	.	.	.	.	.	.	.	.	.	.	.	32B-\Jkk	.	.	.	32E-/Jkk	.	.	.	32G\Jkk	.	32e-\Jkk	.	32b-/Jkk	.	32gg\Jkk	.	32g/Jkk	.	32b-\Jkk	.	.	.
4E-\	.	.	4B- 4E-/	.	4G/	.	4e-/	.	.	.	.	.	.	4E-\	.	4G\	.	4B-\	.	.	.	4E-/	.	4B-/	.	4G\	.	4e-\)	.	4g/	.	4ee-\	.	4g/	.	4ee-\	.	.	.
4r	.	.	4r	.	4r	.	4r	.	.	.	.	.	.	4r	.	4r	.	4r	.	.	.	4r	.	4r	.	4r	.	4r	.	4r	.	4r	.	4r	.	4r	.	.	.
==	==	==	==	==	==	==	==	==	==	==	==	==	==	==	==	==	==	==	==	==	==	==	==	==	==	==	==	==	==	==	==	==	==	==	==	==	==	==	==
*-	*-	*-	*-	*-	*-	*-	*-	*-	*-	*-	*-	*-	*-	*-	*-	*-	*-	*-	*-	*-	*-	*-	*-	*-	*-	*-	*-	*-	*-	*-	*-	*-	*-	*-	*-	*-	*-	*-	*-
!!!system-decoration: [(g1)][(g2)][(s16)][(g3)][(g4)]
!!!RDF**dynam: < = "cresc", 'fontstyle="italic"
!!!RDF**kern: | = vertical stroke
!!!RDF**kern: > = above
!!!RDF**kern: < = below
!!!ENC: Kamil Watkowski
!!!END: 2020-08-19
!!!EED: Antoni Szymański
!!!EST: 2022-02-05
